Assets/enigmaFramework/Shader/grading33_1.Frame.cube
TITLE "Generated by Resolve"
LUT_3D_SIZE 33
0 0 0.000915541
0 0 0.000885023
0 0 0.000839246
0 0 0.000808728
0 0 0.00077821
0 0 0.000747692
0 0 0.000717174
0 0 0.000686656
0.00161746 0 0.000671397
0.00671397 0 0.000656138
0.0175479 0 0.000671397
0.0367285 0 0.000671397
0.0679637 0 0.000656138
0.116594 0 0.000610361
0.16878 0 0.000579843
0.232807 0 0.00047303
0.319966 0 0.000366217
0.433509 0 0.000366217
0.580362 0 0.000762951
0.755367 0 0.00250248
0.913542 0.0021973 0.00604257
1 0.0296788 0.0105135
1 0.0721141 0.0160067
1 0.125734 0.0233005
1 0.18732 0.0333104
1 0.253834 0.0481727
1 0.323125 0.068101
1 0.390875 0.0922408
1 0.451255 0.119249
1 0.502998 0.148226
1 0.545953 0.178195
1 0.581094 0.208408
1 0.610513 0.23801
0 0 0.000900282
0 0 0.000854505
0 0 0.000808728
0 0 0.00077821
0 0 0.000747692
0 0 0.000732433
0 0 0.000701915
0.000381476 0 0.000671397
0.00254826 0 0.000656138
0.00831617 0 0.000656138
0.0185397 0 0.000656138
0.0372473 0 0.000656138
0.0670634 0 0.00062562
0.112825 0 0.000579843
0.158831 0 0.000488289
0.223896 0 0.000366217
0.311833 0 0.000274662
0.42681 0 0.000274662
0.575555 0 0.000701915
0.75227 0 0.00254826
0.91043 0.00628672 0.00604257
1 0.0341497 0.0104372
1 0.0764019 0.0158999
1 0.129488 0.0231937
1 0.190433 0.0332036
1 0.256336 0.0481117
1 0.325063 0.0680095
1 0.392264 0.0921645
1 0.452201 0.119173
1 0.503609 0.148135
1 0.546365 0.178119
1 0.581369 0.208331
1 0.610697 0.237964
0 0 0.000854505
0 0 0.000823987
0 0 0.00077821
0 0 0.000762951
0 0 0.000732433
0 0 0.000701915
0 0 0.000671397
0.000839246 0 0.000640879
0.00354009 0 0.000640879
0.00915541 0 0.000640879
0.0190585 0 0.000640879
0.0372015 0 0.00062562
0.0649271 0 0.000564584
0.10692 0 0.00047303
0.151415 0 0.000381476
0.216098 0 0.000259403
0.30454 0 0.00015259
0.420722 0 0.000183108
0.571298 0 0.000656138
0.749203 0 0.00257877
0.90721 0.0104524 0.00604257
1 0.0386816 0.0103609
1 0.0806592 0.0157931
1 0.133227 0.0230869
1 0.193545 0.0330968
1 0.258839 0.0480354
1 0.327016 0.0679332
1 0.393652 0.0920729
1 0.453117 0.119097
1 0.504189 0.148058
1 0.546731 0.178042
1 0.581628 0.208255
1 0.610849 0.237888
0 0.000106813 0.000823987
0 0.000167849 0.00077821
0 0.000228885 0.000732433
0 0.00030518 0.000701915
0 0.000381476 0.000671397
0 0.000442512 0.000640879
0 0.00047303 0.000595102
0.000991836 0.000427253 0.000564584
0.00396735 0.000366217 0.000579843
0.009308 0.000198367 0.000579843
0.0190127 0 0.000564584
0.035996 0 0.000534066
0.0621195 0 0.000457771
0.101732 0 0.000350958
0.144961 0 0.000259403
0.209125 0 0.000137331
0.297993 0 4.57771e-05
0.415274 0 9.15541e-05
0.567376 0 0.00062562
0.746288 0.000228885 0.00260929
0.903792 0.0146944 0.00602731
1 0.0432441 0.0102693
1 0.0849165 0.0156863
1 0.136919 0.0229801
1 0.196628 0.0330053
1 0.261295 0.0479591
1 0.328954 0.0678569
1 0.394995 0.0920119
1 0.454063 0.11902
1 0.504829 0.147982
1 0.547127 0.177966
1 0.581888 0.208194
1 0.611032 0.237827
0 0.000854505 0.000717174
0 0.000946059 0.000686656
0 0.00103761 0.000656138
0 0.00112917 0.00062562
0 0.00123598 0.000595102
0 0.00132753 0.000564584
0 0.00132753 0.000534066
0.000610361 0.00143435 0.000534066
0.00268559 0.0016022 0.000442512
0.00793469 0.0016022 0.000427253
0.0174258 0.00149538 0.000411994
0.0338598 0.00120546 0.000381476
0.0592966 0.000579843 0.00030518
0.0966354 0 0.000228885
0.139254 0 0.000137331
0.20296 0 1.5259e-05
0.292149 0 0
0.410407 0 0
0.563897 0 0.000595102
0.743328 0.00408942 0.00263981
0.900191 0.019028 0.0059968
1 0.047837 0.0101778
1 0.0891432 0.0155795
1 0.140612 0.0228733
1 0.19968 0.0329137
1 0.263752 0.0478828
1 0.330877 0.0677653
1 0.396368 0.0919356
1 0.454963 0.118944
1 0.505425 0.147906
1 0.547509 0.177905
1 0.582116 0.208133
1 0.6112 0.237751
0 0.002533 0.000595102
0 0.00263981 0.000564584
0 0.00276188 0.000534066
0 0.00288396 0.000503548
0 0.00300603 0.00047303
0 0.00303655 0.000457771
0 0.0030518 0.000442512
7.62951e-05 0.00328069 0.00047303
0.00166323 0.00366217 0.000366217
0.00584421 0.00383001 0.000274662
0.0150759 0.00376898 0.000244144
0.0315557 0.00350958 0.000213626
0.056672 0.00296025 0.000167849
0.0920424 0.00228885 9.15541e-05
0.134325 0.00196841 0
0.197589 0.00146487 0
0.287053 0.00109865 0
0.406119 0.00128176 0
0.560754 0.00271611 0.000564584
0.74049 0.00802625 0.00267033
0.896437 0.0234531 0.00596628
1 0.05243 0.0101015
1 0.0933394 0.0154726
1 0.144274 0.0227665
1 0.202762 0.0328069
1 0.266224 0.0478218
1 0.332799 0.067689
1 0.397696 0.0918441
1 0.455863 0.118868
1 0.506035 0.147829
1 0.547921 0.177813
1 0.582376 0.208057
1 0.611368 0.237705
0 0.00535592 0.000427253
0 0.00538643 0.000396735
0 0.00544747 0.000366217
0 0.00550851 0.000350958
0 0.00547799 0.000335698
0 0.00546273 0.000320439
0 0.00549325 0.000320439
0 0.00590524 0.000366217
0.000732433 0.00648508 0.000259403
0.00445563 0.0068513 0.000137331
0.012726 0.00695811 7.62951e-05
0.0289616 0.00675975 3.0518e-05
0.0539406 0.0061799 0
0.087541 0.00569162 0
0.129442 0.00555428 0
0.192325 0.00526436 0
0.281987 0.00511177 0
0.401587 0.00549325 0
0.557473 0.00714122 0.000549325
0.737118 0.0128786 0.00270085
0.891859 0.0288396 0.00590524
1 0.0579232 0.0099794
1 0.0983444 0.0153506
1 0.148608 0.0226444
1 0.206363 0.0327001
1 0.269123 0.0477302
1 0.335058 0.0675975
1 0.399313 0.0917372
1 0.456947 0.118761
1 0.506737 0.147738
1 0.548379 0.177722
1 0.582712 0.20798
1 0.611582 0.237644
0 0.00962844 0.000198367
0 0.00955215 0.000167849
0 0.00949111 0.00015259
0 0.00932326 0.00015259
0 0.00924697 0.00015259
0 0.00921645 0.00015259
0 0.00933852 0.000167849
0 0.0100557 0.000183108
0 0.0108644 7.62951e-05
0.00300603 0.011429 0
0.0106203 0.01178 0
0.025864 0.0117342 0
0.0508278 0.0110933 0
0.0829786 0.0107424 0
0.124407 0.0107576 0
0.186725 0.0106203 0
0.276371 0.0107118 0
0.396765 0.0113069 0
0.553658 0.0132753 0.000534066
0.732647 0.0195773 0.00271611
0.885557 0.0361944 0.00582895
0.996826 0.0652628 0.00984207
1 0.105043 0.0151827
1 0.154406 0.0224765
1 0.211185 0.0325628
1 0.272999 0.0476387
1 0.338079 0.0674754
1 0.401434 0.0916304
1 0.458412 0.118639
1 0.507698 0.147616
1 0.549004 0.17763
1 0.583108 0.207858
1 0.611841 0.237537
0 0.0159609 0
0 0.0155947 0
0 0.015259 0
0 0.0150912 0
0 0.0149996 0
0 0.0150607 0
0 0.0155184 0
0 0.0166018 0
0 0.0176547 0
0.00112917 0.0184482 0
0.00848402 0.0190127 0
0.0225528 0.0189517 0
0.0469673 0.0184329 0
0.0778515 0.018204 0
0.119448 0.018265 0
0.181598 0.0182498 0
0.271046 0.0185702 0
0.391852 0.0194553 0
0.549493 0.0218357 0.000534066
0.72639 0.0290379 0.00270085
0.876799 0.0462501 0.00569162
0.987808 0.0750744 0.0096437
1 0.113954 0.0149691
1 0.162097 0.0222782
1 0.217594 0.0323796
1 0.278157 0.0474861
1 0.342123 0.0673228
1 0.404257 0.0914626
1 0.460349 0.118471
1 0.50898 0.147448
1 0.549844 0.177478
1 0.583642 0.207736
1 0.612222 0.2374
0 0.024567 0
0 0.0241245 0
0 0.0238804 0
0 0.0237583 0
0 0.0238651 0
0 0.0243076 0
0 0.0252384 0
0 0.0264744 0
0 0.0275731 0
0 0.0284123 0
0.00595102 0.0290532 0
0.0194247 0.0293126 0
0.0428779 0.0290684 0
0.0714733 0.02916 0
0.113863 0.0292058 0
0.177279 0.0292058 0
0.266819 0.0297551 0
0.387778 0.0310063 0
0.544457 0.0340276 0.000503548
0.717327 0.0423743 0.00260929
0.864927 0.0600748 0.00547799
0.975799 0.0881361 0.00936904
1 0.125734 0.0146944
1 0.172259 0.0220035
1 0.226062 0.0321355
1 0.284993 0.0473182
1 0.347448 0.0671397
1 0.408042 0.0912642
1 0.462898 0.118257
1 0.510658 0.147234
1 0.550927 0.177264
1 0.58436 0.207538
1 0.612711 0.237232
0 0.0362402 0
0 0.035996 0
0 0.0359503 0
0 0.0362249 0
0 0.0368963 0
0 0.0378882 0
0 0.0391241 0
0 0.0404669 0
0 0.0417182 0
0 0.0427558 0
0.00303655 0.0436408 0
0.0163882 0.0442664 0
0.0377203 0.0445106 0
0.0643473 0.0450141 0
0.106935 0.045243 0
0.172671 0.0453346 0
0.264042 0.0460212 0
0.385199 0.0476539 0
0.537987 0.0518349 0.000396735
0.704524 0.0610513 0.00241093
0.849073 0.0786603 0.00517281
0.960113 0.10544 0.00903334
1 0.141253 0.0143435
1 0.185611 0.0216831
1 0.237217 0.0318456
1 0.294041 0.0471046
1 0.354421 0.0668803
1 0.412955 0.0909895
1 0.4663 0.117983
1 0.512932 0.14696
1 0.552392 0.176989
1 0.585367 0.207279
1 0.613367 0.237018
0 0.0538796 0
0 0.0542153 0
0 0.0549783 0
0 0.0561074 0
0 0.0574197 0
0 0.0586862 0
0 0.0600137 0
0 0.0614328 0
0 0.0628214 0
0 0.0640726 0
0 0.0652628 0
0.0131075 0.0662547 0
0.030869 0.0672618 0
0.057084 0.0682231 0
0.0993057 0.0688487 0
0.166781 0.0694743 0
0.261158 0.0702983 0
0.382239 0.0725261 0
0.528161 0.0775006 0.00015259
0.686763 0.0869001 0.00204471
0.828611 0.103243 0.00477607
0.939803 0.128176 0.00859083
1 0.161517 0.0139162
1 0.203037 0.0212863
1 0.251789 0.0314946
1 0.305882 0.0468605
1 0.363531 0.0665904
1 0.419455 0.0906691
1 0.470741 0.117647
1 0.515908 0.146593
1 0.55436 0.176654
1 0.586664 0.206943
1 0.614221 0.236698
0 0.0829938 0
0 0.0843977 0
0 0.0859846 0
0 0.0875715 0
0 0.0890364 0
0 0.0903487 0
0 0.0917067 0
0 0.0932021 0
0 0.0947585 0
0 0.0962844 0
0 0.0978103 0
0.00727855 0.0993668 0
0.0236973 0.101045 0
0.049897 0.102892 0
0.0922408 0.104494 0
0.159838 0.105608 0
0.253941 0.106813 0
0.373495 0.108751 0
0.513008 0.113039 0
0.664134 0.121126 0.00154116
0.802594 0.135485 0.00424201
0.914305 0.15761 0.00808728
1 0.187686 0.0134279
1 0.225574 0.0208438
1 0.27071 0.0310979
1 0.321294 0.0465858
1 0.375311 0.0662394
1 0.427848 0.0902724
1 0.476555 0.117189
1 0.519829 0.146136
1 0.556893 0.176181
1 0.588388 0.206516
1 0.615412 0.236301
0 0.1299 0
0 0.131746 0
0 0.133486 0
0 0.135058 0
0 0.136507 0
0 0.137804 0
0 0.139147 0
0 0.140688 0
0 0.142397 0
0 0.144183 0
0 0.145968 0
0 0.147982 0
0.0163424 0.15024 0
0.0431678 0.152529 0
0.0853742 0.154437 0
0.149004 0.155734 0
0.237781 0.156497 0
0.352895 0.157412 0
0.489754 0.159716 0
0.636255 0.165393 0.000961318
0.771145 0.176776 0.00366217
0.882902 0.195193 0.0075227
0.973205 0.220981 0.0129091
1 0.254398 0.0203555
1 0.294926 0.030808
1 0.341131 0.0462806
1 0.39028 0.0658885
1 0.438651 0.0898146
1 0.484077 0.11667
1 0.52491 0.145571
1 0.560265 0.175616
1 0.590661 0.205951
1 0.616938 0.235767
0 0.196124 0
0 0.197711 0
0 0.199161 0
0 0.200458 0
0 0.201663 0
0 0.202747 0
0 0.203937 0
0 0.205142 0
0 0.206531 0
0 0.208194 0
0 0.209995 0
0 0.211902 0
0.00764477 0.213962 0
0.0346532 0.215961 0
0.0752422 0.217594 0
0.133165 0.218692 0
0.213779 0.219089 0
0.321538 0.218814 0
0.454368 0.21883 0
0.600275 0.221012 0.000411994
0.734096 0.228229 0.00314336
0.845762 0.242039 0.00701915
0.938003 0.262715 0.0124514
1 0.290593 0.0199741
1 0.325582 0.0307469
1 0.366018 0.046067
1 0.409125 0.065568
1 0.452338 0.0893416
1 0.493706 0.116045
1 0.531472 0.144854
1 0.56463 0.174853
1 0.593652 0.205203
1 0.618967 0.235096
0 0.277012 0
0 0.277882 0
0 0.278737 0
0 0.27953 0
0 0.280278 0
0 0.280995 0
0 0.281773 0
0 0.282734 0
0 0.283925 0
0 0.285252 0
0 0.286763 0
0 0.288273 0
0 0.289754 0
0.0251316 0.291096 0
0.0631571 0.292195 0
0.115831 0.292805 0
0.188022 0.292638 0
0.284947 0.291447 0
0.409079 0.289586 0
0.552407 0.288411 0.000183108
0.688777 0.290791 0.00289921
0.802701 0.299016 0.00680552
0.896666 0.313802 0.0122377
0.972396 0.335348 0.0197604
1 0.363287 0.0309758
1 0.396185 0.046067
1 0.432197 0.0653697
1 0.469368 0.0888991
1 0.505806 0.115373
1 0.539834 0.14403
1 0.570291 0.173938
1 0.597574 0.204273
1 0.621637 0.234165
0 0.365942 0.000701915
0 0.366552 0.000671397
0 0.367163 0.000640879
0 0.367712 0.000610361
0 0.3682 0.000564584
0 0.368688 0.000518807
0 0.369238 0.000457771
0 0.369924 0.000381476
0 0.370748 0.000259403
0 0.37171 0.000106813
0 0.372793 0
0 0.373816 0
0 0.374746 0
0.0168154 0.375402 0
0.0518654 0.375814 0
0.0995041 0.375708 0
0.163867 0.374884 0
0.2495 0.372976 0
0.360327 0.369909 0
0.495216 0.366247 0.000793469
0.631968 0.364309 0.00334173
0.751492 0.366583 0.00717174
0.849393 0.374487 0.0125887
0.929534 0.388205 0.0202487
0.991409 0.40737 0.031693
1 0.431693 0.0465705
1 0.459815 0.0655222
1 0.490043 0.0885939
1 0.520714 0.114717
1 0.550286 0.143084
1 0.577539 0.172839
1 0.602625 0.203098
1 0.625132 0.233036
0 0.459541 0.00463874
0 0.459876 0.00462348
0 0.460197 0.00459297
0 0.460487 0.00456245
0 0.460807 0.00451667
0 0.461082 0.00448615
0 0.461357 0.00444038
0 0.461738 0.00436408
0 0.462211 0.00425727
0 0.46273 0.00411994
0 0.463294 0.00390631
0 0.463783 0.00363165
0 0.464134 0.00328069
0.0124056 0.464179 0.00285344
0.0443885 0.463767 0.00239567
0.0872206 0.462837 0.00196841
0.144335 0.461112 0.00166323
0.219501 0.458366 0.00163272
0.316625 0.454246 0.00204471
0.437339 0.448844 0.00318914
0.568399 0.443488 0.00535592
0.69163 0.440192 0.00892653
0.796002 0.440696 0.0142672
0.883177 0.445701 0.0224918
0.950912 0.456275 0.0334478
1 0.471962 0.047837
1 0.491691 0.0662852
1 0.514458 0.0886702
1 0.538735 0.114199
1 0.563088 0.142123
1 0.586709 0.171572
1 0.609125 0.201678
1 0.629648 0.231632
0 0.544564 0.0118715
0 0.544671 0.0118563
0 0.544823 0.0118257
0 0.54493 0.0117952
0 0.545022 0.0117647
0 0.545129 0.0117342
0 0.54522 0.0116884
0 0.545342 0.0116274
0 0.54551 0.0115358
0 0.545678 0.0114137
0 0.545785 0.0112306
0 0.545846 0.0109712
0 0.545708 0.0106203
0.0187228 0.545251 0.0101778
0.0469215 0.544305 0.00962844
0.0850233 0.542641 0.00903334
0.13521 0.540261 0.00849927
0.200641 0.536828 0.00813306
0.284855 0.532097 0.0081178
0.390158 0.525948 0.00872816
0.508583 0.518929 0.0103151
0.629252 0.512078 0.0135805
0.738033 0.507149 0.0189212
0.831968 0.505348 0.0265049
0.906966 0.508019 0.0368505
0.963577 0.515572 0.0504768
1 0.527184 0.0680552
1 0.542245 0.0894636
1 0.559731 0.114046
1 0.578561 0.141253
1 0.598062 0.170199
1 0.617288 0.200031
1 0.635401 0.229892
0 0.614878 0.0237125
0 0.614923 0.0236973
0 0.614908 0.0236667
0 0.614923 0.0236362
0 0.614923 0.023621
0 0.614923 0.0235904
0 0.614908 0.0235447
0 0.614878 0.0234989
0 0.614832 0.0234073
0 0.614771 0.0233005
0 0.614633 0.0231479
0.00758373 0.614404 0.0229191
0.0207065 0.613947 0.0225986
0.0385138 0.61323 0.0221561
0.0627146 0.612024 0.0216068
0.0954757 0.610147 0.0209506
0.13904 0.607401 0.020264
0.19559 0.603677 0.0196536
0.268132 0.598749 0.0193179
0.358618 0.592416 0.0194553
0.462196 0.58497 0.0204471
0.572213 0.576989 0.0227359
0.678553 0.569436 0.0268559
0.77612 0.563302 0.0332952
0.858885 0.559899 0.0425727
0.922744 0.560388 0.0551308
0.973037 0.564782 0.0714122
1 0.572595 0.0913405
1 0.583535 0.114656
1 0.596933 0.140719
1 0.611887 0.168856
1 0.62739 0.198199
1 0.642649 0.227802
0.0129549 0.66949 0.0426642
0.0144503 0.669429 0.0426337
0.0159457 0.669383 0.0426032
0.0174716 0.669367 0.0425879
0.0189517 0.669306 0.0425574
0.0204776 0.669261 0.0425269
0.0222934 0.669184 0.0424811
0.0247349 0.669123 0.0424353
0.0280461 0.669001 0.042359
0.0324865 0.668849 0.042237
0.0384833 0.668589 0.0420844
0.0466316 0.668223 0.0418555
0.0576486 0.667704 0.0415198
0.0725567 0.666926 0.041062
0.0926986 0.665721 0.0404212
0.119783 0.663996 0.0395819
0.156161 0.661418 0.0385748
0.204028 0.657862 0.0374762
0.265354 0.653223 0.0364538
0.341299 0.647364 0.0357366
0.429221 0.640375 0.0356298
0.525567 0.632471 0.0365911
0.62359 0.624201 0.0391546
0.719127 0.616098 0.0439612
0.806546 0.609079 0.051545
0.878538 0.604486 0.0624857
0.934752 0.603143 0.0769207
0.980346 0.605097 0.0948653
1 0.610193 0.116304
1 0.618112 0.140856
1 0.628199 0.167819
1 0.639658 0.196323
1 0.651637 0.225498
0.066041 0.713802 0.0665141
0.067277 0.713756 0.0664836
0.068513 0.71368 0.066453
0.0697642 0.713634 0.0664225
0.0710155 0.713573 0.066392
0.0722667 0.713497 0.0663462
0.0737621 0.71342 0.0663157
0.0758068 0.713329 0.0662547
0.0785077 0.713176 0.0661631
0.0822003 0.712993 0.0660563
0.087129 0.712718 0.0659037
0.0937972 0.712337 0.0656596
0.1028 0.711818 0.0653239
0.1149 0.71104 0.0648356
0.131258 0.709957 0.0641794
0.153292 0.708431 0.0632639
0.182696 0.706233 0.0620737
0.221958 0.703136 0.0606394
0.272908 0.698985 0.0590372
0.335119 0.693767 0.057496
0.408164 0.687526 0.0562905
0.490288 0.680278 0.0558328
0.577234 0.672236 0.0566415
0.664988 0.663722 0.0593576
0.751751 0.655146 0.064683
0.829343 0.647547 0.0731365
0.892332 0.641993 0.0850843
0.943786 0.639017 0.100603
0.98529 0.638926 0.119646
1 0.641718 0.142092
1 0.646937 0.167346
1 0.654078 0.19469
1 0.662486 0.223011
0.124453 0.749111 0.0938277
0.12546 0.74905 0.0937972
0.126482 0.748989 0.0937667
0.127489 0.748943 0.0937362
0.128466 0.748852 0.0936904
0.129488 0.748806 0.0936599
0.130709 0.74873 0.0936141
0.132342 0.748623 0.0935531
0.134554 0.748486 0.0934768
0.137469 0.748302 0.09337
0.141436 0.748043 0.0932021
0.146761 0.747692 0.0929732
0.153948 0.747189 0.0926528
0.163592 0.746517 0.092195
0.176623 0.745571 0.0915847
0.194095 0.744259 0.0906996
0.217517 0.742428 0.0895094
0.248585 0.739895 0.0879835
0.288609 0.736477 0.0860914
0.338491 0.732082 0.0840009
0.397925 0.726711 0.0819257
0.466163 0.720348 0.0801862
0.540841 0.713085 0.0792554
0.618677 0.705074 0.0797284
0.699168 0.696376 0.0823224
0.777417 0.687541 0.0877546
0.845869 0.67953 0.0965744
0.903075 0.673075 0.109087
0.9505 0.668757 0.125292
0.988403 0.667018 0.145022
1 0.66772 0.167987
1 0.670634 0.193515
1 0.675227 0.220722
0.185672 0.776516 0.123308
0.18645 0.77644 0.123262
0.187259 0.776394 0.123232
0.188037 0.776318 0.123201
0.188861 0.776287 0.123171
0.189639 0.776211 0.123125
0.190585 0.77615 0.123079
0.191882 0.776059 0.123033
0.193591 0.775921 0.122942
0.195895 0.775753 0.122835
0.199039 0.77554 0.122698
0.203189 0.775235 0.122484
0.208835 0.774823 0.122194
0.216403 0.774243 0.121782
0.226429 0.773449 0.121202
0.239841 0.772396 0.120409
0.257603 0.770947 0.119295
0.280934 0.768978 0.117815
0.311162 0.766339 0.115908
0.34966 0.76286 0.113588
0.396963 0.758389 0.110948
0.45243 0.753017 0.108293
0.514763 0.746746 0.105959
0.581827 0.73962 0.104479
0.653483 0.731594 0.104479
0.727016 0.722881 0.106752
0.797162 0.71397 0.112078
0.858381 0.705699 0.120974
0.911437 0.698497 0.133745
0.955337 0.693095 0.150301
0.990173 0.689906 0.170352
1 0.688899 0.193423
1 0.68986 0.21883
0.246189 0.797314 0.153964
0.246769 0.797269 0.153948
0.247349 0.797223 0.153903
0.247959 0.797177 0.153872
0.248539 0.797131 0.153841
0.249134 0.797086 0.153796
0.249866 0.797024 0.153765
0.250782 0.796948 0.153704
0.252064 0.796841 0.153628
0.253758 0.796704 0.153521
0.256046 0.796536 0.153399
0.259113 0.796292 0.153201
0.263218 0.795972 0.152926
0.268727 0.795529 0.152575
0.276066 0.794919 0.152056
0.285832 0.794095 0.151354
0.298848 0.792996 0.150378
0.315953 0.791501 0.149035
0.338338 0.789502 0.147265
0.367086 0.786862 0.144976
0.403342 0.783352 0.142153
0.447364 0.778973 0.138964
0.498161 0.773754 0.135698
0.554421 0.767681 0.132723
0.616297 0.760647 0.130587
0.682399 0.752728 0.130037
0.749279 0.744106 0.131868
0.812192 0.735271 0.136904
0.868452 0.726726 0.145647
0.917891 0.718944 0.158419
0.958648 0.712673 0.175021
0.990845 0.708324 0.195026
1 0.706325 0.218265
0.300969 0.813397 0.184863
0.301381 0.813367 0.184833
0.301823 0.813336 0.184802
0.302251 0.813291 0.184787
0.302647 0.813245 0.184741
0.30309 0.813214 0.18471
0.303593 0.813169 0.18468
0.304265 0.813123 0.184634
0.305165 0.813046 0.184543
0.306401 0.812924 0.184451
0.308034 0.812787 0.184344
0.310262 0.812604 0.184176
0.313176 0.812345 0.183932
0.317143 0.812024 0.183627
0.322408 0.811566 0.183185
0.329427 0.810941 0.182574
0.33875 0.810101 0.18172
0.35111 0.808972 0.180575
0.367376 0.807462 0.179004
0.388449 0.805447 0.176913
0.415366 0.802792 0.174228
0.449042 0.799359 0.170947
0.489464 0.795071 0.167208
0.535561 0.789975 0.163317
0.587671 0.784009 0.159686
0.645167 0.777081 0.156909
0.706035 0.769299 0.155703
0.766781 0.760861 0.157
0.823789 0.752117 0.161608
0.876417 0.743374 0.170016
0.922713 0.73518 0.182574
0.960876 0.728603 0.199252
0.99115 0.724224 0.219837
0.34876 0.826246 0.215198
0.349065 0.82623 0.215167
0.349371 0.826185 0.215152
0.349676 0.826169 0.215106
0.349966 0.826139 0.215091
0.350256 0.826123 0.215061
0.350607 0.826078 0.215015
0.351095 0.826032 0.214984
0.351751 0.825971 0.214923
0.352621 0.825895 0.214847
0.353765 0.825788 0.214725
0.355322 0.82565 0.214588
0.357412 0.825452 0.214389
0.360204 0.825193 0.214115
0.363912 0.824857 0.213733
0.368917 0.824384 0.213214
0.37554 0.823758 0.212497
0.384329 0.822919 0.211521
0.395926 0.82179 0.210193
0.411139 0.820279 0.208408
0.430808 0.81828 0.206012
0.455787 0.815656 0.202976
0.486763 0.812284 0.199237
0.523644 0.808103 0.19498
0.566537 0.803052 0.190478
0.615305 0.797086 0.186191
0.668788 0.790188 0.182727
0.724849 0.782422 0.180865
0.780316 0.77406 0.181567
0.833249 0.765423 0.185779
0.883009 0.756924 0.194125
0.926833 0.749218 0.207004
0.962951 0.743038 0.224277
0.389548 0.836316 0.244343
0.389776 0.836301 0.244312
0.389975 0.836286 0.244282
0.390204 0.836255 0.244266
0.390387 0.83624 0.244251
0.390616 0.836225 0.244221
0.390845 0.836194 0.24419
0.391196 0.836164 0.24416
0.391653 0.836133 0.244099
