Assets/enigmaFramework/Shader/grading33_1.Frame.cube
TITLE "Generated by Resolve"
LUT_3D_SIZE 9
0 0 0.000915541
0 0 0.00077821
0.00161746 0 0.000671397
0.0679637 0 0.000656138
0.319966 0 0.000366217
0.913542 0.0021973 0.00604257
1 0.18732 0.0333104
1 0.451255 0.119249
1 0.610513 0.23801
0 0.000854505 0.000717174
0 0.00123598 0.000595102
0.00268559 0.0016022 0.000442512
0.0592966 0.000579843 0.00030518
0.292149 0 0
0.900191 0.019028 0.0059968
1 0.19968 0.0329137
1 0.454963 0.118944
1 0.6112 0.237751
0 0.0159609 0
0 0.0149996 0
0 0.0176547 0
0.0469673 0.0184329 0
0.271046 0.0185702 0
0.876799 0.0462501 0.00569162
1 0.217594 0.0323796
1 0.460349 0.118471
1 0.612222 0.2374
0 0.0829938 0
0 0.0890364 0
0 0.0947585 0
0.0236973 0.101045 0
0.253941 0.106813 0
0.802594 0.135485 0.00424201
1 0.27071 0.0310979
1 0.476555 0.117189
1 0.615412 0.236301
0 0.365942 0.000701915
0 0.3682 0.000564584
0 0.370748 0.000259403
0 0.374746 0
0.163867 0.374884 0
0.631968 0.364309 0.00334173
0.991409 0.40737 0.031693
1 0.520714 0.114717
1 0.625132 0.233036
0.0129549 0.66949 0.0426642
0.0189517 0.669306 0.0425574
0.0280461 0.669001 0.042359
0.0576486 0.667704 0.0415198
0.156161 0.661418 0.0385748
0.429221 0.640375 0.0356298
0.806546 0.609079 0.051545
1 0.610193 0.116304
1 0.651637 0.225498
0.246189 0.797314 0.153964
0.248539 0.797131 0.153841
0.252064 0.796841 0.153628
0.263218 0.795972 0.152926
0.298848 0.792996 0.150378
0.403342 0.783352 0.142153
0.616297 0.760647 0.130587
0.868452 0.726726 0.145647
1 0.706325 0.218265
0.424613 0.84448 0.27245
0.425208 0.844434 0.272374
0.426078 0.844343 0.272251
0.42887 0.844068 0.271885
0.437842 0.843168 0.270634
0.465873 0.840269 0.266361
0.544656 0.831479 0.253468
0.705867 0.811185 0.233997
0.894972 0.781445 0.245136
0.539849 0.873198 0.389792
0.540017 0.873167 0.389761
0.540215 0.873152 0.389731
0.540902 0.873091 0.389593
0.543175 0.872862 0.389181
0.550439 0.872129 0.387762
0.573236 0.869795 0.382925
0.637583 0.862669 0.368505
0.761746 0.84686 0.346181
0 0 0.00828565
0 0 0.00720226
0.00175479 0 0.00650034
0.0719921 0 0.00660716
0.33814 0 0.00849927
0.929595 0.000869764 0.0175174
1 0.185458 0.0453651
1 0.450172 0.128481
1 0.610193 0.241993
0 0.000946059 0.0071107
0 0.00131228 0.00630198
0.00340276 0.00149538 0.00579843
0.0669718 0 0.00624094
0.332021 0 0.00857557
0.918364 0.0171206 0.0172427
1 0.197665 0.0449836
1 0.45388 0.128084
1 0.61088 0.241733
0 0.0161746 0.00640879
0 0.0151217 0.00608835
0.00263981 0.0145571 0.00596628
0.0727245 0.0141146 0.00624094
0.329412 0.0127108 0.00863661
0.897612 0.0433509 0.0166018
1 0.21532 0.0444343
1 0.459236 0.12752
1 0.611887 0.241367
0 0.0810407 0.00712596
0 0.0806897 0.00732433
0 0.0847944 0.00825513
0.0500038 0.0920424 0.00628672
0.307713 0.0963149 0.00701915
0.826078 0.130037 0.0142672
1 0.26772 0.0430762
1 0.475456 0.125963
1 0.615061 0.240192
0 0.355154 0.0118715
0 0.357763 0.0119478
0 0.360952 0.0117189
0.00801099 0.366094 0.010193
0.185199 0.366857 0.0075227
0.652811 0.35697 0.0119783
0.996948 0.403662 0.0419928
1 0.5196 0.122683
1 0.624796 0.23682
0.0243229 0.665202 0.0543679
0.0301823 0.66508 0.0542763
0.0390021 0.664851 0.0540932
0.0679942 0.663798 0.0531624
0.165637 0.658 0.0494545
0.437827 0.63743 0.0446326
0.811017 0.606851 0.0592813
1 0.609186 0.122454
1 0.651316 0.22884
0.250019 0.796216 0.16022
0.252338 0.796033 0.160082
0.255802 0.795773 0.159884
0.266835 0.794919 0.159182
0.302068 0.79202 0.156573
0.405783 0.782513 0.147951
0.617945 0.759945 0.135393
0.869276 0.726162 0.14934
1 0.706065 0.220752
0.425498 0.844205 0.274861
0.426062 0.844144 0.274784
0.426932 0.844068 0.274678
0.429709 0.843778 0.274311
0.438636 0.842893 0.273045
0.46656 0.840009 0.268742
0.545159 0.83125 0.255711
0.706233 0.810987 0.235859
0.895125 0.781308 0.246555
0.540063 0.873121 0.3906
0.5402 0.873106 0.39057
0.540398 0.873075 0.390524
0.541115 0.873014 0.390402
0.543374 0.872801 0.389975
0.550622 0.872068 0.388556
0.573404 0.869718 0.383719
0.637675 0.862608 0.369268
0.761822 0.846815 0.346853
0 0 0.0491798
0 0 0.0419318
0.000320439 0 0.036759
0.0810407 0 0.0317845
0.341955 0 0.0270542
0.934874 0.000503548 0.0352789
1 0.183291 0.0660258
1 0.448707 0.142077
1 0.609705 0.247868
0 0.000961318 0.0358587
0 0.00122072 0.0313268
0.00251774 0.00146487 0.0285039
0.0758984 0 0.0258183
0.339284 0 0.0263066
0.925597 0.0163577 0.0350042
1 0.195315 0.0653544
1 0.452384 0.141573
1 0.610391 0.247593
0 0.0155642 0.0273289
0 0.0148775 0.0256809
0.00239567 0.0146639 0.0246738
0.0766461 0.0133822 0.0242924
0.339544 0.0118868 0.0258183
0.90808 0.0417639 0.0342412
1 0.212711 0.0644236
1 0.45774 0.140902
1 0.611414 0.247196
0 0.0811933 0.0237736
0 0.0806897 0.0237278
0.00737011 0.0802167 0.0238804
0.0681468 0.0870375 0.0221256
0.340322 0.089662 0.0230716
0.844419 0.125399 0.0310063
1 0.264363 0.0619516
1 0.473945 0.138949
1 0.614588 0.245975
0 0.34345 0.0282902
0 0.345769 0.0289616
0 0.349371 0.0294804
0.0284886 0.356207 0.0279088
0.210254 0.357687 0.0226139
0.678157 0.347631 0.0270085
1 0.399084 0.0581521
1 0.518074 0.134478
1 0.624323 0.242359
0.0403296 0.659358 0.0719158
0.0459297 0.659312 0.0719005
0.0543832 0.65922 0.0717937
0.0823224 0.658488 0.0709087
0.178332 0.653361 0.0661936
0.44918 0.633433 0.0584115
0.817014 0.603769 0.070985
1 0.607767 0.131609
1 0.650828 0.233829
0.255589 0.794644 0.16939
0.257862 0.794476 0.169268
0.261265 0.794217 0.16907
0.272068 0.793393 0.168383
0.306691 0.79057 0.165713
0.409262 0.781247 0.156542
0.620264 0.758892 0.142504
0.870451 0.725338 0.154833
1 0.705669 0.22446
0.42678 0.843778 0.278447
0.427375 0.843732 0.27837
0.428229 0.843641 0.278264
0.430976 0.843366 0.277882
0.439841 0.842481 0.276631
0.467582 0.839628 0.272297
0.545892 0.8309 0.259052
0.706691 0.810712 0.238651
0.895369 0.781094 0.248646
0.540352 0.873014 0.391775
0.540505 0.872999 0.39176
0.540703 0.872984 0.39173
0.541405 0.872908 0.391592
0.543648 0.872679 0.391165
0.550896 0.871962 0.389746
0.573632 0.869627 0.384909
0.637842 0.862531 0.370413
0.761913 0.846738 0.347845
0 0 0.185946
0 0 0.159045
0 0 0.143679
0.0807507 0 0.124697
0.384588 0 0.102647
0.937469 9.15541e-05 0.113481
1 0.179568 0.136217
1 0.444846 0.184115
1 0.60827 0.266285
0 0.000671397 0.13431
0 0.000946059 0.117494
0 0.00115969 0.109056
0.0784924 0 0.101061
0.374182 0 0.0993668
0.929198 0.0155947 0.112749
1 0.191211 0.134768
1 0.448478 0.183368
1 0.608942 0.265965
0 0.014435 0.103853
0 0.0142214 0.0995956
0.000701915 0.0142824 0.0974441
0.087068 0.0123903 0.0955367
0.365423 0.00994888 0.0981003
0.912779 0.0402991 0.111391
1 0.208103 0.132708
1 0.453864 0.182315
1 0.609964 0.265507
0 0.0809949 0.0946212
0 0.0806592 0.0942397
0.00886549 0.0802319 0.0940108
0.0979934 0.079881 0.0946212
0.355566 0.0852064 0.0973678
0.857572 0.120043 0.10486
1 0.258061 0.126818
1 0.469932 0.179171
1 0.613138 0.264073
0 0.332372 0.0949111
0.00350958 0.330968 0.0948348
0.0294804 0.329305 0.0952316
0.0860914 0.332006 0.100008
0.267353 0.337346 0.0869917
0.723217 0.328115 0.0877546
1 0.389029 0.113542
1 0.513863 0.171313
1 0.622873 0.259831
0.0855116 0.644053 0.123919
0.0907759 0.644068 0.124361
0.0984512 0.644129 0.124895
0.122957 0.644236 0.125414
0.211795 0.641245 0.119738
0.477317 0.623117 0.103319
0.832029 0.595376 0.108461
1 0.603708 0.160403
1 0.649409 0.24947
0.272435 0.789929 0.197498
0.274571 0.789776 0.197406
0.277729 0.789532 0.197238
0.287861 0.788815 0.196643
0.320546 0.786297 0.193927
0.41944 0.777584 0.183337
0.626993 0.75581 0.164752
0.873915 0.722866 0.172076
1 0.704448 0.236133
0.430808 0.842466 0.289693
0.431388 0.84242 0.289631
0.432227 0.842329 0.289509
0.434913 0.842069 0.289143
0.44358 0.841215 0.287892
0.470771 0.838437 0.283482
0.54815 0.829877 0.269596
0.708171 0.809857 0.24744
0.896147 0.780453 0.255283
0.541283 0.872679 0.395514
0.541436 0.872663 0.395499
0.541634 0.872648 0.395468
0.542321 0.872572 0.395331
0.544564 0.872358 0.394919
0.551751 0.871641 0.393484
0.57435 0.869322 0.388647
0.638376 0.862257 0.374044
0.762203 0.846525 0.350988
0 0 0.525048
0 0 0.501244
0 0 0.482826
0.0845197 0 0.441016
0.405707 0 0.390829
0.962325 0 0.381476
1 0.174716 0.340658
1 0.437125 0.306157
1 0.604334 0.322637
0 7.62951e-05 0.431662
0 0.00030518 0.419486
0 0.000213626 0.409827
0.0828107 0 0.394644
0.40322 0 0.381888
0.948943 0.0122988 0.375982
1 0.185946 0.337011
1 0.440711 0.304814
1 0.60502 0.322194
0 0.0139925 0.394583
0 0.0140688 0.390173
0 0.0139315 0.386175
0.0861219 0.0121462 0.380133
0.404334 0.00697337 0.37554
0.927962 0.0371099 0.367849
1 0.202319 0.331868
1 0.44596 0.302861
1 0.606027 0.321584
0 0.08159 0.369802
0 0.0813001 0.368566
0.0119783 0.0808728 0.367269
0.0999619 0.0810407 0.365911
0.400824 0.0814374 0.360983
0.863172 0.116014 0.3449
1 0.250553 0.31783
1 0.461769 0.296986
1 0.609201 0.319554
0 0.327321 0.32668
0.00572213 0.325948 0.325689
0.0321813 0.324041 0.324361
0.114961 0.318761 0.320714
0.347601 0.308003 0.312581
0.731762 0.310521 0.297536
1 0.375692 0.282017
1 0.505074 0.280903
1 0.618906 0.313527
0.136812 0.624613 0.267124
0.14728 0.623484 0.266865
0.162387 0.621866 0.266636
0.206226 0.617594 0.267124
0.293904 0.614038 0.272725
0.529931 0.601907 0.23978
0.856626 0.577234 0.226795
1 0.594278 0.24892
1 0.645411 0.298024
0.31989 0.77702 0.277012
0.321675 0.776898 0.277104
0.3243 0.77673 0.277195
0.332586 0.776226 0.277394
0.359274 0.774533 0.276295
0.445655 0.767727 0.263859
0.643778 0.74757 0.23267
0.882628 0.715923 0.225849
1 0.700893 0.272938
0.443168 0.838483 0.324285
0.443687 0.838422 0.324224
0.44445 0.838361 0.324117
0.446937 0.838117 0.323781
0.454932 0.837354 0.322606
0.480354 0.834836 0.318105
0.554879 0.826749 0.302541
0.712535 0.807248 0.275105
0.898405 0.778408 0.276341
0.544274 0.871595 0.407324
0.544411 0.871595 0.407294
0.544625 0.871565 0.407248
0.545296 0.871504 0.407126
0.547494 0.87129 0.406714
0.554513 0.870604 0.40531
0.57673 0.86833 0.400488
0.639963 0.861402 0.385473
0.763149 0.845808 0.360952
0 0 0.833814
0 0 0.828534
0.0264286 0 0.821302
0.127398 0 0.806622
0.442878 0 0.788174
0.979614 0 0.763409
1 0.167132 0.680613
1 0.425788 0.562875
1 0.596216 0.466438
0 0.00117494 0.807065
0 0.000717174 0.804822
0.0306401 0 0.801816
0.126741 0 0.795499
0.441733 0 0.783261
0.966995 0.0149844 0.756909
1 0.17821 0.675959
1 0.429343 0.561059
1 0.596887 0.465858
0 0.0165408 0.794903
0.00712596 0.016144 0.793378
0.0372473 0.0155795 0.791501
0.13138 0.0141756 0.787213
0.441718 0.0108644 0.777447
0.947982 0.0389563 0.747326
1 0.194263 0.669352
1 0.434516 0.558373
1 0.597879 0.464958
0.00294499 0.0869306 0.773877
0.0204318 0.0869612 0.772976
0.0480964 0.0869459 0.771603
0.142489 0.0865644 0.767056
0.424765 0.0871443 0.753185
0.891493 0.113512 0.719417
1 0.241596 0.650233
1 0.450187 0.550271
1 0.601022 0.462181
0.0223697 0.320455 0.701915
0.039353 0.319249 0.700755
0.0644388 0.317586 0.699123
0.141878 0.312901 0.694286
0.364569 0.302556 0.681468
0.763348 0.299229 0.653925
1 0.363958 0.602945
1 0.49279 0.527565
1 0.610574 0.45359
0.143557 0.611551 0.579171
0.153552 0.610498 0.578561
0.168261 0.608911 0.577661
0.213809 0.60412 0.574975
0.345235 0.591043 0.567407
0.602197 0.568032 0.548318
0.85301 0.555947 0.516564
1 0.580072 0.471015
1 0.63679 0.429664
0.378531 0.757641 0.458915
0.381659 0.757259 0.458762
0.386236 0.756725 0.458595
0.400183 0.755108 0.458167
0.438346 0.75079 0.45803
0.504768 0.745617 0.459632
0.674327 0.730037 0.413077
0.896254 0.700282 0.379461
1 0.692378 0.379782
0.477562 0.827741 0.415488
0.477974 0.827695 0.415488
0.478584 0.827634 0.415488
0.480522 0.827482 0.415442
0.486702 0.826932 0.415106
0.506859 0.825086 0.412421
0.572213 0.818463 0.395956
0.723033 0.800336 0.356115
0.90399 0.772747 0.33994
0.553521 0.86836 0.441901
0.553658 0.868345 0.441871
0.553857 0.86833 0.44184
0.554482 0.868269 0.441733
0.556512 0.868086 0.441367
0.563058 0.867445 0.440116
0.583947 0.865385 0.435462
0.644816 0.858824 0.419699
0.765927 0.843641 0.391165
0.207767 0 1
0.228656 0 1
0.25951 0 1
0.354711 0 1
0.622324 0 0.991806
0.982818 0.0319677 0.965896
1 0.173709 0.905821
1 0.410834 0.80296
1 0.584283 0.675944
0.209613 0.0119326 1
0.230259 0.0116732 1
0.260777 0.0113222 1
0.354803 0.0104982 0.997879
0.614572 0.011368 0.987854
0.969085 0.0476081 0.961379
1 0.183764 0.902693
1 0.414374 0.801495
1 0.584939 0.675364
0.212558 0.0325322 0.998108
0.23267 0.0323949 0.997314
0.262181 0.0322423 0.996124
0.352575 0.0319829 0.992432
0.600946 0.0343786 0.98146
0.949599 0.0704204 0.95494
1 0.198276 0.898177
1 0.419562 0.799313
1 0.585931 0.67451
0.206455 0.109987 0.977661
0.22446 0.10985 0.976806
0.250935 0.109712 0.97557
0.331807 0.109468 0.971771
0.556558 0.111101 0.961105
0.894621 0.137774 0.936477
1 0.241352 0.884855
1 0.435279 0.792706
1 0.589059 0.671885
0.183703 0.317128 0.922789
0.197848 0.31632 0.922148
0.218692 0.315206 0.921233
0.282673 0.311955 0.918425
0.463035 0.304631 0.910307
0.77055 0.304829 0.890806
1 0.354238 0.84979
1 0.478325 0.773632
1 0.598596 0.663676
0.222431 0.591608 0.829038
0.230976 0.590738 0.828656
0.24361 0.589456 0.828077
0.282216 0.585534 0.826307
0.390143 0.574929 0.821118
0.610147 0.554894 0.80798
0.869322 0.539956 0.780407
1 0.566354 0.726696
1 0.624964 0.637675
0.382574 0.74403 0.707576
0.385519 0.743694 0.707378
0.389853 0.74316 0.707057
0.403418 0.741512 0.706127
0.443809 0.736629 0.703243
0.544884 0.724025 0.695155
0.722164 0.702068 0.673457
0.890578 0.680446 0.638498
1 0.679225 0.583688
0.524392 0.810864 0.574838
0.525093 0.810758 0.574807
0.526116 0.810636 0.574746
0.529366 0.810193 0.574578
0.539391 0.808881 0.574151
0.5664 0.805402 0.573678
0.61416 0.80061 0.572244
0.742779 0.786053 0.52987
0.912871 0.760204 0.494163
0.580285 0.859663 0.524147
0.580392 0.859663 0.524147
0.580545 0.859648 0.524132
0.581033 0.859602 0.524102
0.582635 0.859449 0.524025
0.587762 0.859007 0.523568
0.604593 0.857466 0.52079
0.65771 0.852064 0.505989
0.773083 0.837934 0.470527
0.719676 0.0779431 1
0.727611 0.0784772 1
0.73901 0.0793164 1
0.772442 0.0821088 1
0.855634 0.0923171 1
1 0.128618 1
1 0.23064 1
1 0.407904 0.947951
1 0.568338 0.85034
0.7075 0.0929885 1
0.715373 0.093492 1
0.726772 0.0942397 1
0.760082 0.0968185 1
0.843473 0.10631 1
0.990356 0.140566 1
1 0.238544 1
1 0.411048 0.94696
1 0.569024 0.849912
0.690394 0.114733 1
0.698222 0.115145 1
0.709499 0.115801 1
0.742733 0.118059 1
0.826368 0.126497 1
0.975402 0.157794 1
1 0.250034 1
1 0.415702 0.945525
1 0.570031 0.849287
0.643549 0.178134 1
0.651225 0.178363 1
0.662272 0.178683 1
0.695033 0.179965 1
0.778759 0.185321 1
0.932479 0.208362 1
1 0.284413 1
1 0.429755 0.9411
1 0.573205 0.847288
0.545007 0.334295 1
0.551843 0.334096 1
0.561822 0.333791 1
0.59176 0.333074 1
0.671794 0.332143 1
0.828489 0.337697 1
1 0.375982 0.978988
1 0.468849 0.92813
1 0.582925 0.841047
0.442191 0.565255 0.961898
0.446967 0.564782 0.961715
0.454002 0.564126 0.961456
0.475456 0.562036 0.960616
0.536416 0.556298 0.958053
0.672236 0.544518 0.950927
0.867628 0.534554 0.933501
1 0.551705 0.895872
1 0.609445 0.82295
0.447639 0.722408 0.879103
0.449805 0.722133 0.878996
0.452964 0.721736 0.878828
0.462928 0.720485 0.878279
0.492821 0.716716 0.8766
0.571344 0.706584 0.871641
0.725841 0.686336 0.858976
0.901534 0.663996 0.831785
1 0.666026 0.780209
0.524636 0.798856 0.765042
0.525338 0.798764 0.764981
0.526345 0.798627 0.764904
0.529564 0.798199 0.764645
0.539727 0.796841 0.763821
0.570123 0.792752 0.761288
0.647501 0.782101 0.754223
0.776059 0.764202 0.735012
0.908202 0.744366 0.704952
0.621637 0.845365 0.653178
0.62179 0.845335 0.653178
0.622034 0.845304 0.653162
0.622827 0.845197 0.653132
0.62536 0.844877 0.653025
0.633036 0.843854 0.65275
0.653208 0.841291 0.652583
0.689448 0.837766 0.650614
0.788327 0.826307 0.615564
0.941527 0.287465 1
0.942702 0.28777 1
0.944411 0.288228 1
0.949752 0.289662 1
0.965179 0.294484 1
1 0.310079 1
1 0.355993 1
1 0.449821 1
1 0.558022 0.959411
0.935531 0.294377 1
0.936721 0.294636 1
0.93846 0.295079 1
0.943847 0.296483 1
0.959518 0.301091 1
0.99736 0.316075 1
1 0.360464 1
1 0.451972 1
1 0.558633 0.959136
0.926848 0.304433 1
0.928023 0.304738 1
0.929824 0.305135 1
0.935256 0.306432 1
0.951278 0.310704 1
0.989883 0.324834 1
1 0.366964 1
1 0.455146 1
1 0.559548 0.958724
0.900877 0.334707 1
0.902129 0.334905 1
0.903975 0.33521 1
0.909728 0.336233 1
0.926619 0.339651 1
0.967498 0.351171 1
1 0.386511 1
1 0.46479 1
1 0.562402 0.957458
0.833265 0.414084 1
0.834638 0.414145 1
0.836667 0.414237 1
0.843015 0.414496 1
0.861769 0.415641 1
0.908522 0.42031 1
0.989471 0.439399 1
1 0.492485 1
1 0.571252 0.95346
0.71339 0.553414 1
0.714809 0.553323 1
0.716884 0.55314 1
0.723369 0.552605 1
0.743084 0.551049 1
0.795117 0.547433 1
0.89279 0.544198 1
1 0.555688 0.98764
1 0.596063 0.941711
0.601068 0.691569 0.9738
0.602106 0.691432 0.973754
0.603662 0.691218 0.973678
0.60856 0.690562 0.973449
0.623774 0.688518 0.972702
0.667002 0.682689 0.970397
0.762829 0.669627 0.963897
0.897139 0.652552 0.947631
1 0.651102 0.912596
0.569741 0.780255 0.898711
0.57023 0.780179 0.89868
0.571008 0.780072 0.898634
0.573388 0.779751 0.898482
0.580987 0.778714 0.898009
0.604013 0.77557 0.896483
0.66479 0.767132 0.892073
0.778988 0.750515 0.881071
0.916625 0.731334 0.858
0.622553 0.835569 0.803632
0.622736 0.835538 0.803616
0.62298 0.835523 0.803586
0.623774 0.835401 0.803525
0.626322 0.835065 0.803311
0.634379 0.833967 0.80264
0.658274 0.830701 0.800565
0.717494 0.822309 0.794781
0.815579 0.808606 0.779034
