Assets/enigmaFramework/Shader/grading33_1.Frame.cube
TITLE "Generated by Resolve"
LUT_3D_SIZE 5
0 0 0.000915541
0.00161746 0 0.000671397
0.319966 0 0.000366217
1 0.18732 0.0333104
1 0.610513 0.23801
0 0.0159609 0
0 0.0176547 0
0.271046 0.0185702 0
1 0.217594 0.0323796
1 0.612222 0.2374
0 0.365942 0.000701915
0 0.370748 0.000259403
0.163867 0.374884 0
0.991409 0.40737 0.031693
1 0.625132 0.233036
0.246189 0.797314 0.153964
0.252064 0.796841 0.153628
0.298848 0.792996 0.150378
0.616297 0.760647 0.130587
1 0.706325 0.218265
0.539849 0.873198 0.389792
0.540215 0.873152 0.389731
0.543175 0.872862 0.389181
0.573236 0.869795 0.382925
0.761746 0.84686 0.346181
0 0 0.0491798
0.000320439 0 0.036759
0.341955 0 0.0270542
1 0.183291 0.0660258
1 0.609705 0.247868
0 0.0155642 0.0273289
0.00239567 0.0146639 0.0246738
0.339544 0.0118868 0.0258183
1 0.212711 0.0644236
1 0.611414 0.247196
0 0.34345 0.0282902
0 0.349371 0.0294804
0.210254 0.357687 0.0226139
1 0.399084 0.0581521
1 0.624323 0.242359
0.255589 0.794644 0.16939
0.261265 0.794217 0.16907
0.306691 0.79057 0.165713
0.620264 0.758892 0.142504
1 0.705669 0.22446
0.540352 0.873014 0.391775
0.540703 0.872984 0.39173
0.543648 0.872679 0.391165
0.573632 0.869627 0.384909
0.761913 0.846738 0.347845
0 0 0.525048
0 0 0.482826
0.405707 0 0.390829
1 0.174716 0.340658
1 0.604334 0.322637
0 0.0139925 0.394583
0 0.0139315 0.386175
0.404334 0.00697337 0.37554
1 0.202319 0.331868
1 0.606027 0.321584
0 0.327321 0.32668
0.0321813 0.324041 0.324361
0.347601 0.308003 0.312581
1 0.375692 0.282017
1 0.618906 0.313527
0.31989 0.77702 0.277012
0.3243 0.77673 0.277195
0.359274 0.774533 0.276295
0.643778 0.74757 0.23267
1 0.700893 0.272938
0.544274 0.871595 0.407324
0.544625 0.871565 0.407248
0.547494 0.87129 0.406714
0.57673 0.86833 0.400488
0.763149 0.845808 0.360952
0.207767 0 1
0.25951 0 1
0.622324 0 0.991806
1 0.173709 0.905821
1 0.584283 0.675944
0.212558 0.0325322 0.998108
0.262181 0.0322423 0.996124
0.600946 0.0343786 0.98146
1 0.198276 0.898177
1 0.585931 0.67451
0.183703 0.317128 0.922789
0.218692 0.315206 0.921233
0.463035 0.304631 0.910307
1 0.354238 0.84979
1 0.598596 0.663676
0.382574 0.74403 0.707576
0.389853 0.74316 0.707057
0.443809 0.736629 0.703243
0.722164 0.702068 0.673457
1 0.679225 0.583688
0.580285 0.859663 0.524147
0.580545 0.859648 0.524132
0.582635 0.859449 0.524025
0.604593 0.857466 0.52079
0.773083 0.837934 0.470527
0.941527 0.287465 1
0.944411 0.288228 1
0.965179 0.294484 1
1 0.355993 1
1 0.558022 0.959411
0.926848 0.304433 1
0.929824 0.305135 1
0.951278 0.310704 1
1 0.366964 1
1 0.559548 0.958724
0.833265 0.414084 1
0.836667 0.414237 1
0.861769 0.415641 1
0.989471 0.439399 1
1 0.571252 0.95346
0.601068 0.691569 0.9738
0.603662 0.691218 0.973678
0.623774 0.688518 0.972702
0.762829 0.669627 0.963897
1 0.651102 0.912596
0.622553 0.835569 0.803632
0.62298 0.835523 0.803586
0.626322 0.835065 0.803311
0.658274 0.830701 0.800565
0.815579 0.808606 0.779034
