Assets/enigmaFramework/Shader/Unity_ACES_RRT_sRGB_33.cube
TITLE "Generated by Resolve"
LUT_3D_SIZE 5
0 0 0
0.00376898 0 0
0.283436 0 0
1 0.263935 0.0412451
1 0.909575 0.726284
0 0.00958267 0
0.00918593 0.0106966 0
0.313313 0.0105135 0
1 0.310536 0.0444038
1 0.910903 0.727413
0 0.3841 0
0.0130922 0.384543 0
0.390387 0.388815 0
1 0.569436 0.0845502
1 0.920729 0.736233
0.738247 0.944839 0.475578
0.743679 0.944549 0.476478
0.782773 0.942611 0.483635
0.95642 0.937728 0.549294
1 0.973449 0.80618
0.996796 1 0.955764
0.996887 1 0.955779
0.997543 1 0.955917
1 1 0.957244
1 1 0.969146
0 0 0.00869764
0.00463874 0 0.00909438
0.290135 0 0.0122683
1 0.264439 0.084184
1 0.909545 0.733852
0 0.0102388 0.0106661
0.0104219 0.0104219 0.0104219
0.308385 0.0114137 0.0141604
1 0.311055 0.088365
1 0.910872 0.734905
0 0.38436 0.0192874
0.0146487 0.384787 0.0200809
0.391196 0.389075 0.0268711
1 0.569604 0.131762
1 0.920714 0.74316
0.736858 0.94464 0.501732
0.74229 0.944366 0.502541
0.781353 0.942428 0.50901
0.955169 0.937606 0.568353
1 0.973419 0.810224
0.99678 1 0.956252
0.996857 1 0.956268
0.997513 1 0.956405
1 1 0.957717
1 1 0.969497
0 0 0.368811
0 0 0.369223
0.356802 0 0.370062
1 0.266667 0.441703
1 0.909407 0.783337
0 0.00975052 0.372
0.00077821 0.0103151 0.372045
0.371206 0.00677501 0.373358
1 0.313359 0.443626
1 0.910719 0.784054
0 0.385534 0.3832
0.0191043 0.385931 0.383963
0.390463 0.390463 0.390463
1 0.570764 0.466133
1 0.920562 0.789715
0.730312 0.943603 0.646143
0.735668 0.943328 0.646555
0.774289 0.941451 0.649836
0.94786 0.93695 0.681987
1 0.973297 0.838499
0.996567 1 0.960006
0.996643 1 0.960021
0.997299 1 0.960143
1 1 0.961334
1 1 0.972122
0.17818 0 1
0.228534 0 1
0.594873 0 1
1 0.303883 0.973526
1 0.909651 0.94815
0.19115 0.0329137 1
0.24065 0.0330663 1
0.595636 0.0397498 1
1 0.348348 0.969848
1 0.910964 0.948165
0.230304 0.41857 0.974548
0.273793 0.419028 0.973831
0.552514 0.426719 0.9691
1 0.583215 0.951522
1 0.920699 0.948302
0.743328 0.940963 0.934936
0.747845 0.940749 0.934936
0.780606 0.9393 0.934951
0.936172 0.936172 0.936172
1 0.973144 0.952819
0.995346 1 0.985443
0.995422 1 0.985443
0.996078 1 0.985504
1 1 0.986007
1 1 0.990814
0.996323 0.524208 1
0.99855 0.52607 1
1 0.540597 1
1 0.655436 1
1 0.920211 1
0.986435 0.547738 1
0.988724 0.549371 1
1 0.562264 1
1 0.668025 1
1 0.921309 1
0.93492 0.67982 1
0.937331 0.680629 1
0.954787 0.687083 1
1 0.743725 1
1 0.929412 1
0.899168 0.943114 1
0.900404 0.943099 1
0.909895 0.943038 1
0.970214 0.944747 1
1 0.975219 1
0.997101 1 1
0.997177 1 1
0.997757 1 1
1 1 1
1 1 1
