Assets/enigmaFramework/Shader/Unity_ACES_RRT_sRGB_33.cube
TITLE "Generated by Resolve"
LUT_3D_SIZE 9
0 0 0
0 0 0
0.00376898 0 0
0.0478676 0 0
0.283436 0 0
0.91043 0.000656138 0
1 0.263935 0.0412451
1 0.698436 0.317021
1 0.909575 0.726284
0 0 0
0 0.000213626 0
0.00701915 0.000183108 0
0.0559854 0 0
0.295293 0 0
0.908202 0.0177615 0
1 0.282887 0.0424659
1 0.702419 0.319387
1 0.910109 0.726726
0 0.00958267 0
0 0.0101778 0
0.00918593 0.0106966 0
0.0656748 0.0106813 0
0.313313 0.0105135 0
0.903685 0.0459754 0
1 0.310536 0.0444038
1 0.708171 0.322911
1 0.910903 0.727413
0 0.0773785 0
0 0.0780652 0
0.00737011 0.0789044 0
0.0783551 0.0807355 0
0.35967 0.0876631 0
0.886046 0.14435 0
1 0.391882 0.0514839
1 0.725032 0.334157
1 0.913359 0.729534
0 0.3841 0
0 0.384298 0
0.0130922 0.384543 0
0.106752 0.385275 0
0.390387 0.388815 0
0.835126 0.427573 0.00926223
1 0.569436 0.0845502
1 0.768444 0.370245
1 0.920729 0.736233
0.303349 0.779217 0.07953
0.317662 0.778515 0.0801099
0.338354 0.777539 0.0809796
0.398978 0.774731 0.0837568
0.548028 0.768795 0.0929732
0.792248 0.764797 0.123598
0.997574 0.78558 0.220508
1 0.852644 0.470771
1 0.939681 0.755917
0.738247 0.944839 0.475578
0.740444 0.944717 0.475929
0.743679 0.944549 0.476478
0.753658 0.944045 0.478172
0.782773 0.942611 0.483635
0.851621 0.939651 0.500725
0.95642 0.937728 0.549294
1 0.946685 0.656535
1 0.973449 0.80618
0.929747 1 0.809018
0.930037 1 0.809079
0.930449 1 0.809155
0.931777 1 0.8094
0.935912 1 0.810193
0.947707 1 0.812772
0.974945 1 0.820768
1 1 0.84329
1 1 0.890929
0.996796 1 0.955764
0.996841 1 0.955779
0.996887 1 0.955779
0.99704 1 0.95581
0.997543 1 0.955917
0.99913 1 0.956237
1 1 0.957244
1 1 0.960403
1 1 0.969146
0 0 4.57771e-05
0 0 9.15541e-05
0.00451667 0 0.000213626
0.0505989 0 0.000518807
0.285023 0 0.00151064
0.910155 0.000854505 0.00799573
1 0.264149 0.0575723
1 0.698405 0.333593
1 0.90956 0.729366
0 0.000198367 0.000396735
0.000411994 0.000411994 0.000411994
0.00941482 0.000289921 0.000549325
0.0563211 0 0.000793469
0.294743 0 0.00170901
0.907561 0.0180209 0.00831617
1 0.283101 0.0589761
1 0.702388 0.335912
1 0.910094 0.729809
0 0.0101778 0.000457771
0 0.0106966 0.000518807
0.010956 0.0111696 0.000610361
0.0662242 0.0112306 0.000869764
0.310613 0.0110323 0.00181582
0.902571 0.0463264 0.00874342
1 0.31075 0.0611887
1 0.708125 0.339376
1 0.910887 0.730465
0 0.0775616 0
0 0.0782483 0
0.00794995 0.079118 0
0.0792554 0.0809033 0.000137331
0.357671 0.0881208 0.00163272
0.884047 0.144808 0.0102083
1 0.392065 0.0691539
1 0.724987 0.350408
1 0.913344 0.73254
0 0.384207 0.000396735
0 0.384405 0.000640879
0.0137942 0.384649 0.0010071
0.107439 0.385382 0.00221256
0.390784 0.388922 0.00642405
0.833555 0.427802 0.0234531
1 0.569512 0.103441
1 0.768399 0.385275
1 0.920729 0.739055
0.303151 0.779065 0.098497
0.317449 0.778378 0.0990768
0.338079 0.777386 0.0999466
0.398581 0.774594 0.102754
0.547295 0.768673 0.111971
0.79115 0.764691 0.14255
0.996246 0.785519 0.238422
1 0.852598 0.48188
1 0.939666 0.758358
0.737667 0.944762 0.486381
0.739864 0.94464 0.486717
0.743099 0.944472 0.487236
0.753079 0.943969 0.488869
0.782177 0.942535 0.494118
0.851026 0.939574 0.510536
0.955901 0.937682 0.557153
1 0.946654 0.661311
1 0.973434 0.807828
0.929656 1 0.810605
0.929946 1 0.810651
0.930373 1 0.810727
0.931701 1 0.810971
0.935821 1 0.811765
0.947631 1 0.814298
0.974853 1 0.822187
1 1 0.844419
1 1 0.891569
0.996796 1 0.955962
0.996826 1 0.955978
0.996872 1 0.955978
0.997024 1 0.956008
0.997528 1 0.956115
0.999115 1 0.95642
1 1 0.957443
1 1 0.960571
1 1 0.969284
0 0 0.00869764
0 0 0.00888075
0.00463874 0 0.00909438
0.0559396 0 0.00968948
0.290135 0 0.0122683
0.910124 0.00106813 0.0241093
1 0.264439 0.084184
1 0.698344 0.357809
1 0.909545 0.733852
0 0.000259403 0.00976577
0.00015259 0.000457771 0.00991836
0.00895705 0.000320439 0.0101015
0.0591592 0 0.0106508
0.297688 0 0.0131228
0.90692 0.0183108 0.0248264
1 0.283391 0.0858473
1 0.702327 0.360052
1 0.910079 0.734264
0 0.0102388 0.0106661
0 0.0103456 0.0104829
0.0104219 0.0104219 0.0104219
0.063035 0.01149 0.0115663
0.308385 0.0114137 0.0141604
0.901167 0.0467536 0.0257877
1 0.311055 0.088365
1 0.708064 0.363363
1 0.910872 0.734905
0 0.0776226 0.0121309
0 0.0783551 0.0123293
0.00839246 0.0792706 0.0126192
0.0802472 0.0811322 0.013489
0.353216 0.0888838 0.0165255
0.881056 0.145449 0.0288853
1 0.392325 0.0970321
1 0.72491 0.373861
1 0.913329 0.736889
0 0.38436 0.0192874
0 0.384543 0.0196078
0.0146487 0.384787 0.0200809
0.108263 0.385519 0.0216068
0.391196 0.389075 0.0268711
0.830945 0.428153 0.0471046
1 0.569604 0.131762
1 0.768322 0.406729
1 0.920714 0.74316
0.302861 0.778836 0.126909
0.317113 0.778149 0.127489
0.337682 0.777173 0.128359
0.397986 0.77438 0.131151
0.546197 0.768505 0.140322
0.789517 0.764553 0.170626
0.994293 0.785428 0.264698
1 0.852537 0.497673
1 0.939651 0.761929
0.736858 0.94464 0.501732
0.739055 0.944533 0.502052
0.74229 0.944366 0.502541
0.752255 0.943862 0.504067
0.781353 0.942428 0.50901
0.850187 0.939483 0.524468
0.955169 0.937606 0.568353
1 0.946624 0.668223
1 0.973419 0.810224
0.929534 1 0.812924
0.929824 1 0.812985
0.930236 1 0.813062
0.931563 1 0.813291
0.935683 1 0.814069
0.947494 1 0.816556
0.974731 1 0.824277
1 1 0.846082
1 1 0.892531
0.99678 1 0.956252
0.996811 1 0.956268
0.996857 1 0.956268
0.997009 1 0.956298
0.997513 1 0.956405
0.9991 1 0.95671
1 1 0.957717
1 1 0.96083
1 1 0.969497
0 0 0.0701152
0 0 0.0704967
0.0030518 0 0.0707866
0.057145 0 0.071397
0.328664 0 0.0763867
0.913573 0.000976577 0.097612
1 0.265232 0.174868
1 0.698207 0.42768
1 0.909499 0.747112
0 9.15541e-05 0.0720836
0 0.000198367 0.0724041
0.00677501 3.0518e-05 0.0726329
0.0639811 0 0.0733654
0.329717 0 0.078233
0.909361 0.0184024 0.0992294
1 0.284199 0.176532
1 0.70219 0.429496
1 0.910033 0.747494
0 0.00979629 0.0738994
0 0.0102235 0.0741741
0.00935378 0.0105898 0.0745556
0.0707408 0.010605 0.0756542
0.328725 0.010071 0.0806744
0.900389 0.0473335 0.101488
1 0.311864 0.179049
1 0.707927 0.432227
1 0.910826 0.748058
0 0.0774701 0.0789197
0 0.0782483 0.0793011
0.00805676 0.0792859 0.079881
0.081651 0.081651 0.081651
0.336355 0.091249 0.0872206
0.872862 0.146975 0.108446
1 0.393057 0.187549
1 0.724758 0.440833
1 0.913283 0.749844
0 0.38468 0.0994736
0 0.384848 0.0999466
0.0160372 0.385092 0.100649
0.10956 0.385809 0.102876
0.391226 0.38941 0.110292
0.820813 0.429313 0.135363
1 0.569894 0.220859
1 0.768139 0.467811
1 0.920668 0.75552
0.302007 0.778119 0.216098
0.316106 0.777447 0.216648
0.336477 0.776471 0.217472
0.396155 0.773739 0.220096
0.542855 0.767956 0.228779
0.784512 0.764126 0.257298
0.988281 0.785138 0.344625
1 0.852369 0.542321
1 0.93962 0.772778
0.734676 0.944335 0.545083
0.736873 0.944228 0.545342
0.740093 0.94406 0.545739
0.750042 0.943557 0.547005
0.779065 0.942138 0.551049
0.847852 0.939239 0.563729
0.953048 0.937423 0.601007
1 0.946517 0.688563
1 0.973388 0.817578
0.929152 1 0.82005
0.929427 1 0.820096
0.929854 1 0.820157
0.931182 1 0.820386
0.935302 1 0.821103
0.947097 1 0.823438
0.974334 1 0.830686
1 1 0.851194
1 1 0.895476
0.996719 1 0.957168
0.99675 1 0.957168
0.996811 1 0.957183
0.996963 1 0.957214
0.997467 1 0.957305
0.999054 1 0.95761
1 1 0.958602
1 1 0.961639
1 1 0.970123
0 0 0.368811
0 0 0.369085
0 0 0.369223
0.0536202 0 0.369024
0.356802 0 0.370062
0.948165 0 0.386496
1 0.266667 0.441703
1 0.698131 0.584329
1 0.909407 0.783337
0 0 0.37084
0 0 0.370962
0 0 0.370947
0.0606394 0 0.370581
0.363577 0 0.371557
0.94049 0.0149691 0.387533
1 0.285557 0.442496
1 0.702098 0.585184
1 0.909941 0.783627
0 0.00975052 0.372
0 0.0100557 0.372061
0.00077821 0.0103151 0.372045
0.0682231 0.0102541 0.371908
0.371206 0.00677501 0.373358
0.92755 0.0445258 0.388846
1 0.313359 0.443626
1 0.70782 0.58648
1 0.910719 0.784054
0 0.079057 0.373297
0 0.0797742 0.373465
0.00294499 0.0807355 0.373709
0.0821088 0.0829175 0.374395
0.38201 0.0887312 0.37731
0.883116 0.146395 0.392523
1 0.394598 0.4477
1 0.72459 0.590631
1 0.913176 0.785397
0 0.385534 0.3832
0 0.385702 0.383505
0.0191043 0.385931 0.383963
0.112367 0.386679 0.385428
0.390463 0.390463 0.390463
0.787808 0.433265 0.407904
1 0.570764 0.466133
1 0.76791 0.604242
1 0.920562 0.789715
0.301961 0.77615 0.460304
0.315633 0.775494 0.460639
0.335363 0.774578 0.461143
0.393133 0.771984 0.462745
0.535149 0.766537 0.468101
0.771908 0.763088 0.485695
0.973159 0.784741 0.535821
1 0.852094 0.645716
1 0.939513 0.802976
0.730312 0.943603 0.646143
0.732479 0.943496 0.646311
0.735668 0.943328 0.646555
0.74551 0.94284 0.647334
0.774289 0.941451 0.649836
0.842603 0.938628 0.657847
0.94786 0.93695 0.681987
1 0.946288 0.740063
1 0.973297 0.838499
0.928084 1 0.840299
0.928359 1 0.840345
0.928786 1 0.840406
0.930098 1 0.840589
0.934218 1 0.841169
0.945998 1 0.843061
0.97322 1 0.848997
1 1 0.865965
1 1 0.904326
0.996567 1 0.960006
0.996597 1 0.960006
0.996643 1 0.960021
0.996796 1 0.960052
0.997299 1 0.960143
0.998901 1 0.960418
1 1 0.961334
1 1 0.964187
1 1 0.972122
0 0 0.820218
0 0 0.819577
0.00881972 0 0.81854
0.0895857 0 0.814939
0.399161 0 0.805737
0.971344 0.00236515 0.7953
1 0.267567 0.783475
1 0.698955 0.790249
1 0.909331 0.857771
0 0 0.818998
0 0 0.818296
0.0146792 0 0.817182
0.0974289 0 0.813519
0.404654 0 0.804486
0.965164 0.0209812 0.793927
1 0.286671 0.78233
1 0.702861 0.790311
1 0.90985 0.857893
0 0.0130617 0.815854
0 0.0131685 0.815167
0.0210422 0.0132143 0.814099
0.106844 0.0126345 0.810636
0.41088 0.0109255 0.802258
0.95462 0.0512703 0.791699
1 0.314534 0.780682
1 0.708507 0.790387
1 0.910643 0.858076
0 0.0877241 0.803754
0.0065919 0.0882734 0.80322
0.032517 0.0889906 0.802426
0.124712 0.0908064 0.799908
0.417975 0.0979782 0.793545
0.918791 0.151827 0.784588
1 0.395758 0.776165
1 0.72517 0.790707
1 0.9131 0.858671
0.0164187 0.391867 0.774762
0.0360723 0.39202 0.774533
0.0652628 0.392248 0.774212
0.156527 0.393072 0.773251
0.420829 0.397406 0.770703
0.821485 0.43505 0.767483
1 0.571771 0.76878
1 0.768322 0.792523
1 0.920455 0.860578
0.332219 0.773297 0.760037
0.344503 0.772747 0.760037
0.362234 0.771954 0.760052
0.414084 0.769757 0.760098
0.542229 0.765225 0.760479
0.762829 0.762814 0.762829
0.950332 0.786007 0.772137
1 0.852201 0.801678
1 0.939376 0.866743
0.728008 0.942382 0.799374
0.730098 0.942275 0.79942
0.733166 0.942123 0.799496
0.742641 0.941665 0.799725
0.770382 0.940368 0.800504
0.836591 0.937743 0.803067
0.940322 0.936309 0.811505
1 0.946014 0.835172
1 0.973159 0.885191
0.926024 1 0.885756
0.926314 1 0.885771
0.926726 1 0.885801
0.928023 1 0.885908
0.932082 1 0.886244
0.943755 1 0.887343
0.97081 1 0.890852
1 1 0.901411
1 1 0.92697
0.996139 1 0.968017
0.99617 1 0.968017
0.996216 1 0.968032
0.996368 1 0.968048
0.996872 1 0.968124
0.998459 1 0.968353
1 1 0.969085
1 1 0.971374
1 1 0.977859
0.17818 0 1
0.198444 0 1
0.228534 0 1
0.322637 0 1
0.594873 0 1
1 0.0471962 0.999832
1 0.303883 0.973526
1 0.70042 0.94641
1 0.909651 0.94815
0.184054 0.0112917 1
0.204196 0.0111391 1
0.234073 0.0109255 1
0.327321 0.0105592 1
0.59588 0.0133364 1
0.992004 0.0682536 0.997726
1 0.322072 0.972015
1 0.704295 0.946166
1 0.910185 0.948165
0.19115 0.0329137 1
0.211093 0.0329595 1
0.24065 0.0330663 1
0.332586 0.0337224 1
0.595636 0.0397498 1
0.979812 0.0999313 0.994614
1 0.348348 0.969848
1 0.709895 0.9458
1 0.910964 0.948165
0.202686 0.123278 1
0.222004 0.123735 1
0.250553 0.124453 1
0.338842 0.126894 1
0.586313 0.137453 0.997574
0.941604 0.199405 0.985214
1 0.422599 0.963836
1 0.726299 0.944793
1 0.913375 0.948196
0.230304 0.41857 0.974548
0.247898 0.418738 0.974258
0.273793 0.419028 0.973831
0.352987 0.420081 0.972549
0.552514 0.426719 0.9691
0.84416 0.465385 0.962142
1 0.583215 0.951522
1 0.7691 0.942351
1 0.920699 0.948302
0.45095 0.771328 0.942199
0.45951 0.771008 0.942138
0.471824 0.770565 0.942046
0.508186 0.769329 0.941787
0.60473 0.76669 0.9411
0.780148 0.766705 0.939788
0.964477 0.787137 0.938338
1 0.85272 0.938766
1 0.939513 0.949004
0.743328 0.940963 0.934936
0.745159 0.940871 0.934936
0.747845 0.940749 0.934936
0.756161 0.940368 0.934936
0.780606 0.9393 0.934951
0.839734 0.937133 0.935119
0.936172 0.936172 0.936172
1 0.946487 0.940307
1 0.973144 0.952819
0.92488 1 0.952117
0.925139 1 0.952117
0.925536 1 0.952132
0.926787 1 0.952163
0.930648 1 0.952255
0.941863 1 0.95256
0.968048 1 0.953613
1 1 0.957061
1 1 0.966506
0.995346 1 0.985443
0.995377 1 0.985443
0.995422 1 0.985443
0.995575 1 0.985458
0.996078 1 0.985504
0.99765 1 0.985611
1 1 0.986007
1 1 0.987228
1 1 0.990814
0.7579 0.107042 1
0.766293 0.108217 1
0.778347 0.110002 1
0.81326 0.115953 1
0.90277 0.136721 1
1 0.211444 1
1 0.434348 1
1 0.7234 1
1 0.910292 1
0.75259 0.128099 1
0.76083 0.129274 1
0.772656 0.131075 1
0.806989 0.137011 1
0.895369 0.157671 1
1 0.231373 1
1 0.447623 1
1 0.726604 1
1 0.910811 1
0.744625 0.15935 1
0.752636 0.160525 1
0.764141 0.16231 1
0.797711 0.1682 1
0.88452 0.18854 1
1 0.260533 1
1 0.466438 1
1 0.731228 1
1 0.911589 1
0.71986 0.255634 1
0.727245 0.256733 1
0.737865 0.258412 1
0.769482 0.26389 1
0.851759 0.282673 1
0.98851 0.348486 1
1 0.519036 1
1 0.745037 1
1 0.913985 1
0.663218 0.502937 1
0.669474 0.503487 1
0.678553 0.504311 1
0.705715 0.507012 1
0.777691 0.516365 1
0.908141 0.548577 1
1 0.63621 1
1 0.782681 1
1 0.921218 1
0.676524 0.778531 1
0.680232 0.7785 1
0.685649 0.77847 1
0.701991 0.778393 1
0.746639 0.778683 1
0.844831 0.782284 1
0.973953 0.802182 1
1 0.858091 1
1 0.939818 1
0.799786 0.939941 1
0.801007 0.939895 1
0.802823 0.939818 1
0.808438 0.939605 1
0.825162 0.939025 1
0.867689 0.937881 1
0.944213 0.937957 1
1 0.947066 1
1 0.973312 1
0.931441 1 1
0.931655 1 1
0.932006 1 1
0.933074 1 1
0.936416 1 1
0.946197 1 1
0.969421 1 1
1 1 1
1 1 1
0.995041 1 1
0.995071 1 1
0.995117 1 1
0.99527 1 1
0.995758 1 1
0.997284 1 1
1 1 1
1 1 1
1 1 1
0.996323 0.524208 1
0.997223 0.524956 1
0.99855 0.52607 1
1 0.529564 1
1 0.540597 1
1 0.573068 1
1 0.655436 1
1 0.790341 1
1 0.920211 1
0.992203 0.533959 1
0.993118 0.534676 1
0.994461 0.535729 1
0.998611 0.539055 1
1 0.549584 1
1 0.580774 1
1 0.660594 1
1 0.792309 1
1 0.920653 1
0.986435 0.547738 1
0.987366 0.548394 1
0.988724 0.549371 1
0.99295 0.552483 1
1 0.562264 1
1 0.591852 1
1 0.668025 1
1 0.795209 1
1 0.921309 1
0.97055 0.586572 1
0.971511 0.587106 1
0.972915 0.58793 1
0.977249 0.590509 1
0.989883 0.598764 1
1 0.624018 1
1 0.689738 1
1 0.804013 1
1 0.923323 1
0.93492 0.67982 1
0.935897 0.680156 1
0.937331 0.680629 1
0.941756 0.682155 1
0.954787 0.687083 1
0.987198 0.702388 1
1 0.743725 1
1 0.828672 1
1 0.929412 1
0.895415 0.819715 1
0.896254 0.819806 1
0.897505 0.819928 1
0.901396 0.820325 1
0.913191 0.821668 1
0.944167 0.82623 1
1 0.841505 1
1 0.881559 1
1 0.945327 1
0.899168 0.943114 1
0.899672 0.943099 1
0.900404 0.943099 1
0.902724 0.943084 1
0.909895 0.943038 1
0.929641 0.94313 1
0.970214 0.944747 1
1 0.953262 1
1 0.975219 1
0.953597 1 1
0.95375 1 1
0.953964 1 1
0.954665 1 1
0.956863 1 1
0.963394 1 1
0.979507 1 1
1 1 1
1 1 1
0.997101 1 1
0.997131 1 1
0.997177 1 1
0.997314 1 1
0.997757 1 1
0.999146 1 1
1 1 1
1 1 1
1 1 1
