Assets/enigmaFramework/Shader/Unity_ACES_RRT_sRGB_33.cube
TITLE "Generated by Resolve"
LUT_3D_SIZE 33
0 0 0
0 0 0
0 0 0
0 0 0
0 0 0
0 0 0
0 0 0
0.000579843 0 0
0.00376898 0 0
0.00833143 0 0
0.0156405 0 0
0.0280003 0 0
0.0478676 0 0
0.0760052 0 0
0.119127 0 0
0.186206 0 0
0.283436 0 0
0.411444 0 0
0.569863 0 0
0.748379 0 0
0.91043 0.000656138 0
1 0.0315709 0.0031281
1 0.0854353 0.00939956
1 0.162768 0.0208591
1 0.263935 0.0412451
1 0.386252 0.0770886
1 0.507393 0.134066
1 0.610834 0.213855
1 0.698436 0.317021
1 0.767788 0.437324
1 0.825437 0.550393
1 0.872007 0.646067
1 0.909575 0.726284
0 0 0
0 0 0
0 0 0
0 0 0
0 0 0
0 0 0
0 0 0
0.00141909 0 0
0.00480659 0 0
0.00956741 0 0
0.0175174 0 0
0.0305638 0 0
0.0502785 0 0
0.0783551 0 0
0.121798 0 0
0.189181 0 0
0.286397 0 0
0.413962 0 0
0.571756 0 0
0.749203 0 0
0.909941 0.00479133 0
1 0.0365454 0.00314336
1 0.0907149 0.00949111
1 0.167941 0.0210269
1 0.268696 0.0415503
1 0.390158 0.0775616
1 0.510018 0.13463
1 0.612482 0.214466
1 0.699443 0.317617
1 0.768383 0.437797
1 0.825803 0.550698
1 0.872221 0.646265
1 0.909712 0.72639
0 0 0
0 0 0
0 0 0
0 0 0
0 0 0
0 0 0
0.000411994 0 0
0.00224308 0 0
0.00561532 0 0
0.010956 0 0
0.0194095 0 0
0.0325933 0 0
0.0522621 0 0
0.0806287 0 0
0.124468 0 0
0.192187 0 0
0.289342 0 0
0.41648 0 0
0.573663 0 0
0.749996 0 0
0.909392 0.00901808 0
1 0.0415961 0.00315862
1 0.0960098 0.00956741
1 0.173098 0.0211948
1 0.273442 0.0418555
1 0.394034 0.0780346
1 0.512612 0.13521
1 0.614115 0.215076
1 0.70045 0.318212
1 0.768978 0.438254
1 0.826185 0.550988
1 0.872435 0.646464
1 0.90985 0.726497
0 0 0
0 0 0
0 0 0
0 0 0
0 0 0
0.000106813 0 0
0.00112917 0 0
0.00308232 0 0
0.00648508 0 0
0.0120394 0 0
0.0207675 0 0
0.0343328 0 0
0.0541543 0 0
0.0829175 0 0
0.127184 0 0
0.195209 0 0
0.292317 0 0
0.418982 0 0
0.575555 0 0
0.750744 0 0
0.908812 0.0133364 0
1 0.0467384 0.00317388
1 0.101289 0.00965896
1 0.178225 0.0213779
1 0.278172 0.0421607
1 0.397864 0.0785077
1 0.515175 0.13579
1 0.615732 0.215686
1 0.701442 0.318791
1 0.769574 0.438727
1 0.826551 0.551293
1 0.872663 0.646647
1 0.909972 0.726619
0 0 0
0 1.5259e-05 0
0 7.62951e-05 0
0 0.00015259 0
0 0.000213626 0
0.000442512 0.000259403 0
0.00151064 0.000274662 0
0.00352483 0.000259403 0
0.00701915 0.000183108 0
0.0127871 1.5259e-05 0
0.021973 0 0
0.035996 0 0
0.0559854 0 0
0.0852064 0 0
0.129946 0 0
0.19826 0 0
0.295293 0 0
0.421515 0 0
0.577447 0 0
0.751461 0.000915541 0
0.908202 0.0177615 0
1 0.0518959 0.00318914
1 0.106569 0.00975052
1 0.183352 0.021561
1 0.282887 0.0424659
1 0.401648 0.078996
1 0.517708 0.13637
1 0.61735 0.216297
1 0.702419 0.319387
1 0.770169 0.439185
1 0.826917 0.551598
1 0.872877 0.646845
1 0.910109 0.726726
0 0.000747692 0
0 0.000854505 0
0 0.000961318 0
0 0.00106813 0
0 0.00112917 0
0.000518807 0.00117494 0
0.00170901 0.00120546 0
0.00387579 0.00120546 0
0.0075227 0.0011902 0
0.0135195 0.00111391 0
0.0231022 0.000946059 0
0.0375982 0.000686656 0
0.0577859 0.000274662 0
0.0875105 0 0
0.132738 0 0
0.201389 0 0
0.298268 0 0
0.424048 0 0
0.579339 0 0
0.752148 0.0047303 0
0.90753 0.0222782 0
1 0.057084 0.00320439
1 0.111864 0.00984207
1 0.188449 0.0217441
1 0.287572 0.0427863
1 0.405417 0.0794842
1 0.520226 0.13695
1 0.618952 0.216907
1 0.70341 0.319982
1 0.770764 0.439658
1 0.827283 0.551888
1 0.873091 0.647028
1 0.910246 0.726848
0 0.0021973 0
0 0.00236515 0
0 0.00248722 0
0 0.00260929 0
0 0.00268559 0
0.000457771 0.00274662 0
0.0018616 0.00280766 0
0.00419623 0.00285344 0
0.00805676 0.00288396 0
0.0143435 0.0028687 0
0.0243534 0.00277714 0
0.039292 0.00260929 0
0.0598917 0.00228885 0
0.0902724 0.0018616 0
0.136141 0.00122072 0
0.205234 0.000289921 0
0.301869 0 0
0.4271 0 0
0.581598 0.00205997 0
0.752941 0.00941482 0
0.906691 0.0277867 0
1 0.0633249 0.00323491
1 0.118181 0.00994888
1 0.194537 0.021973
1 0.293156 0.0431678
1 0.409857 0.0800641
1 0.523186 0.137652
1 0.620844 0.217639
1 0.70457 0.320684
1 0.771466 0.440208
1 0.82771 0.552254
1 0.87335 0.647257
1 0.910399 0.726986
0 0.00492866 0
0 0.005066 0
0 0.00521859 0
0 0.00534066 0
0 0.00543221 0
0.000289921 0.00552377 0
0.00190738 0.00561532 0
0.00448615 0.00570687 0
0.00863661 0.00578317 0
0.0153048 0.00584421 0
0.0258335 0.00584421 0
0.0410468 0.00572213 0
0.062562 0.00550851 0
0.0939193 0.00523384 0
0.140719 0.00483711 0
0.210422 0.00427253 0
0.306737 0.00404364 0
0.431205 0.00482185 0
0.584619 0.00767529 0
0.753902 0.0159457 0
0.905486 0.0354009 0
1 0.0717174 0.00328069
1 0.126635 0.0101015
1 0.20267 0.0222782
1 0.300618 0.0436866
1 0.415747 0.0808576
1 0.527123 0.138582
1 0.623377 0.218631
1 0.706127 0.32163
1 0.772412 0.440955
1 0.828305 0.552728
1 0.873701 0.647562
1 0.910613 0.727169
0 0.00958267 0
0 0.00976577 0
0 0.00991836 0
0 0.0100557 0
0 0.0101778 0
0 0.0102846 0
0.00173953 0.0104067 0
0.00463874 0.010544 0
0.00918593 0.0106966 0
0.0163577 0.0108339 0
0.0272221 0.0108644 0
0.0429694 0.0107729 0
0.0656748 0.0106813 0
0.0985733 0.0105592 0
0.146853 0.0103914 0
0.217411 0.010193 0
0.313313 0.0105135 0
0.436713 0.0118868 0
0.588586 0.0156252 0
0.755062 0.0251011 0
0.903685 0.0459754 0
1 0.0830396 0.00334173
1 0.137972 0.0103304
1 0.213519 0.0227207
1 0.310536 0.0444038
1 0.423499 0.0819257
1 0.532296 0.139849
1 0.626719 0.219959
1 0.708171 0.322911
1 0.773663 0.441947
1 0.829084 0.553368
1 0.874174 0.647974
1 0.910903 0.727413
0 0.0175021 0
0 0.0177005 0
0 0.0178683 0
0 0.0180362 0
0 0.0181888 0
0 0.0183261 0
0.0011902 0.0184787 0
0.00450141 0.0186618 0
0.00949111 0.0187381 0
0.0170596 0.0187991 0
0.0283207 0.0188296 0
0.0449226 0.0188449 0
0.0690623 0.0188296 0
0.104112 0.0188144 0
0.154879 0.0187839 0
0.226642 0.019028 0
0.322103 0.0199741 0
0.444007 0.0221256 0
0.593805 0.027039 0
0.756374 0.038056 0
0.901061 0.0607004 0
1 0.0982528 0.00344854
1 0.153094 0.0106661
1 0.227924 0.023331
1 0.323705 0.0453803
1 0.433646 0.0833906
1 0.53904 0.141573
1 0.631113 0.221744
1 0.710887 0.32462
1 0.775326 0.443275
1 0.830121 0.554223
1 0.8748 0.648539
1 0.911284 0.727733
0 0.0298924 0
0 0.0300298 0
0 0.0301671 0
0 0.0302892 0
0 0.030396 0
0 0.0305028 0
0.000198367 0.0306096 0
0.00392157 0.0307317 0
0.00943008 0.0308843 0
0.0175021 0.0310216 0
0.0293736 0.0311742 0
0.0468452 0.0313115 0
0.0725872 0.0314183 0
0.110201 0.0314946 0
0.164385 0.0315862 0
0.238224 0.0323339 0
0.333227 0.0339361 0
0.453422 0.0372015 0
0.600412 0.0436103 0
0.757626 0.056611 0
0.897414 0.0807813 0
1 0.118685 0.00364691
1 0.17322 0.0111391
1 0.247013 0.0242008
1 0.341085 0.0467384
1 0.446799 0.0854047
1 0.547768 0.143908
1 0.636881 0.224155
1 0.714443 0.326925
1 0.777539 0.44506
1 0.831495 0.555367
1 0.875624 0.649271
1 0.911788 0.728176
0 0.0483864 0
0 0.0485542 0
0 0.0487068 0
0 0.0488594 0
0 0.0489967 0
0 0.0491188 0
0 0.0492561 0
0.00300603 0.0494392 0
0.00901808 0.0496529 0
0.0176852 0.0499123 0
0.0302586 0.0502022 0
0.0486915 0.0505074 0
0.0760662 0.0507973 0
0.116274 0.0510262 0
0.174258 0.0514839 0
0.250523 0.0526589 0
0.346426 0.0551003 0
0.465034 0.0597238 0
0.60824 0.0679789 0
0.758633 0.0829633 0
0.8925 0.107942 0
1 0.145953 0.00396735
1 0.199863 0.0118715
1 0.272129 0.025452
1 0.363516 0.0486763
1 0.46363 0.0881666
1 0.558923 0.147066
1 0.644373 0.22739
1 0.719066 0.330007
1 0.780438 0.44744
1 0.83331 0.556893
1 0.876722 0.650263
1 0.912459 0.728756
0 0.0773785 0
0 0.0775616 0
0 0.0777295 0
0 0.0778973 0
0 0.0780652 0
0 0.0782177 0
0 0.0784009 0
0.000823987 0.0786297 0
0.00737011 0.0789044 0
0.0166781 0.0792706 0
0.030045 0.0796979 0
0.049546 0.0801862 0
0.0783551 0.0807355 0
0.121492 0.081529 0
0.182361 0.082536 0
0.261418 0.0843214 0
0.35967 0.0876631 0
0.477943 0.0935531 0
0.617029 0.103059 0
0.759548 0.118898 0
0.886046 0.14435 0
0.991394 0.182071 0.00457771
1 0.234806 0.0130159
1 0.304952 0.0272831
1 0.391882 0.0514839
1 0.48481 0.0919814
1 0.573068 0.151369
1 0.654002 0.231754
1 0.725032 0.334157
1 0.784237 0.450599
1 0.835691 0.558938
1 0.878172 0.651576
1 0.913359 0.729534
0 0.122606 0
0 0.12285 0
0 0.123095 0
0 0.123323 0
0 0.123537 0
0 0.123766 0
0 0.124025 0
0 0.124361 0
0.00335698 0.124788 0
0.0135958 0.125338 0
0.0282292 0.126024 0
0.0494087 0.126848 0
0.0803998 0.127779 0
0.12575 0.128786 0
0.18793 0.130098 0
0.2692 0.132082 0
0.370306 0.135439 0
0.490791 0.141192 0
0.626352 0.150866 0
0.75993 0.167071 0
0.877699 0.192462 0.000167849
0.977691 0.229267 0.0056611
1 0.280156 0.0148165
1 0.347341 0.0300298
1 0.426932 0.0556191
1 0.510872 0.0972915
1 0.590875 0.157229
1 0.666178 0.237629
1 0.732601 0.339727
1 0.789166 0.45481
1 0.838819 0.561624
1 0.880095 0.65333
1 0.914534 0.730587
0 0.189044 0
0 0.189258 0
0 0.189471 0
0 0.18967 0
0 0.189853 0
0 0.190051 0
0 0.190265 0
0 0.190555 0
0 0.190936 0
0.0110018 0.191394 0
0.0273899 0.191959 0
0.050782 0.19263 0
0.0843366 0.193393 0
0.130602 0.194324 0
0.193027 0.19556 0
0.275029 0.19736 0
0.377951 0.200305 0
0.500923 0.205402 0
0.633524 0.214527 0
0.758511 0.230243 0
0.867002 0.254795 0.00138857
0.960555 0.289906 0.00766003
1 0.338109 0.0177615
1 0.399313 0.0343481
1 0.468956 0.0617533
1 0.541924 0.104723
1 0.612848 0.165194
1 0.681285 0.245563
1 0.742077 0.347204
1 0.795514 0.460395
1 0.842847 0.565194
1 0.882597 0.655665
1 0.916091 0.73196
0 0.276188 0
0 0.276326 0
0 0.276478 0
0 0.276616 0
0 0.276738 0
0 0.276875 0
0 0.277012 0
0 0.277211 0
0.000350958 0.27744 0
0.0136416 0.277729 0
0.0321813 0.27808 0
0.0575875 0.278508 0
0.0920729 0.279042 0
0.138506 0.279759 0
0.200336 0.280751 0
0.281117 0.2822 0
0.383536 0.284535 0
0.5066 0.28864 0
0.634653 0.296651 0
0.752468 0.310964 0
0.852979 0.333639 0.0039826
0.939498 0.366018 0.0112612
1 0.408286 0.022797
1 0.459419 0.0413062
1 0.517189 0.070985
1 0.577539 0.11516
1 0.639246 0.176074
1 0.699596 0.256275
1 0.753918 0.357153
1 0.80354 0.467735
1 0.848005 0.569894
1 0.885847 0.658763
1 0.91812 0.733806
0 0.3841 0
0 0.384146 0
0 0.384192 0
0 0.384253 0
0 0.384298 0
0 0.384344 0
0 0.38439 0
0.002533 0.384451 0
0.0130922 0.384543 0
0.0273289 0.384665 0
0.0464942 0.384817 0
0.0722515 0.385016 0
0.106752 0.385275 0
0.152667 0.385657 0
0.213046 0.386236 0
0.291234 0.387198 0
0.390387 0.388815 0
0.507866 0.391897 0
0.62855 0.39823 0
0.738827 0.409705 0.00331121
0.835126 0.427573 0.00926223
0.916899 0.452674 0.018143
0.98143 0.485451 0.0316777
1 0.524956 0.0525826
1 0.569436 0.0845502
1 0.618173 0.129702
1 0.669902 0.19089
1 0.721019 0.270695
1 0.768444 0.370245
1 0.813519 0.477348
1 0.854475 0.576074
1 0.890013 0.662837
1 0.920729 0.736233
0 0.505577 0
0 0.505531 0
0.00416571 0.505486 0
0.00910964 0.505425 0
0.0140536 0.505379 0
0.0190127 0.505333 0
0.0249332 0.505272 0
0.0328832 0.505196 0
0.043534 0.505074 0
0.0578164 0.504936 0
0.0769055 0.504738 0
0.102358 0.504494 0
0.136126 0.504173 0
0.180636 0.503792 0
0.238743 0.503365 0
0.313542 0.502937 0
0.406882 0.50277 0.000854505
0.512551 0.503685 0.00343328
0.622019 0.506783 0.00712596
0.724147 0.513497 0.0124208
0.81706 0.524666 0.0200046
0.89575 0.541268 0.0309453
0.958373 0.563668 0.0469215
1 0.591287 0.0705882
1 0.624643 0.104036
1 0.662867 0.149859
1 0.703975 0.211032
1 0.745113 0.290059
1 0.78584 0.387274
1 0.825666 0.489784
1 0.86247 0.584161
1 0.895277 0.668177
1 0.924071 0.739406
0.0584573 0.616648 0.00657664
0.0633097 0.61651 0.00666819
0.0681468 0.616358 0.00675975
0.0729686 0.61622 0.00686656
0.0777905 0.616068 0.00695811
0.0826123 0.61593 0.00704967
0.0883497 0.615763 0.00717174
0.0960555 0.615534 0.00732433
0.10634 0.615228 0.0075227
0.120058 0.614832 0.00781262
0.138338 0.614298 0.00819409
0.162585 0.613596 0.00869764
0.194598 0.612696 0.00939956
0.236606 0.611536 0.0103304
0.291203 0.610086 0.0116121
0.359716 0.608423 0.0133669
0.440452 0.606897 0.0157931
0.530587 0.605951 0.0191653
0.624002 0.606378 0.0239109
0.716045 0.608957 0.0305791
0.803113 0.614466 0.0399634
0.877546 0.624063 0.0532235
0.93901 0.638376 0.0718242
0.990463 0.657526 0.0971389
1 0.681437 0.131487
1 0.709331 0.177615
1 0.739773 0.238285
1 0.772015 0.315862
1 0.806027 0.409171
1 0.840009 0.505684
1 0.872114 0.594659
1 0.901808 0.67512
1 0.928283 0.743542
0.163653 0.707042 0.0328985
0.168139 0.706859 0.0330205
0.17261 0.706676 0.0331426
0.17705 0.706493 0.0332647
0.181491 0.70631 0.0333867
0.185931 0.706127 0.0335088
0.191226 0.705898 0.0336614
0.198291 0.705608 0.0338598
0.207736 0.705226 0.0341344
0.220325 0.704707 0.0345006
0.237064 0.704021 0.0349889
0.259174 0.703136 0.0356451
0.287846 0.701991 0.0365301
0.324376 0.700603 0.0377356
0.36997 0.69897 0.0393683
0.425315 0.697139 0.0415961
0.490013 0.695323 0.0446632
0.561746 0.693843 0.0488746
0.637522 0.693156 0.0546883
0.716808 0.693568 0.0627146
0.793957 0.695827 0.0736553
0.862074 0.700816 0.0884565
0.921981 0.708919 0.108293
0.972625 0.720577 0.134646
1 0.735897 0.169482
1 0.754406 0.215305
1 0.776364 0.274662
1 0.801434 0.349874
1 0.828565 0.436805
1 0.856382 0.525628
1 0.883604 0.608072
1 0.909728 0.684016
1 0.933455 0.748943
0.303349 0.779217 0.07953
0.306966 0.779034 0.0796674
0.310552 0.778866 0.0798199
0.314122 0.778698 0.0799573
0.317662 0.778515 0.0801099
0.321202 0.778347 0.0802472
0.325383 0.778149 0.0804303
0.330953 0.77789 0.0806592
0.338354 0.777539 0.0809796
0.348104 0.777066 0.0813916
0.360891 0.776471 0.0819715
0.377539 0.775708 0.0827344
0.398978 0.774731 0.0837568
0.426139 0.773526 0.0851606
0.459892 0.772107 0.0870222
0.500633 0.770489 0.0895552
0.548028 0.768795 0.0929732
0.602426 0.767117 0.0975814
0.663371 0.765621 0.103822
0.728084 0.764675 0.11223
0.792248 0.764797 0.123598
0.852781 0.766445 0.138857
0.9093 0.770062 0.159152
0.958099 0.776287 0.185824
0.997574 0.78558 0.220508
1 0.798093 0.265187
1 0.813718 0.322301
1 0.832135 0.392721
1 0.852644 0.470771
1 0.874342 0.54995
1 0.896864 0.624949
1 0.919051 0.695262
1 0.939681 0.755917
0.444724 0.834211 0.148241
0.44712 0.834089 0.148394
0.449516 0.833982 0.148547
0.451881 0.83386 0.148699
0.454231 0.833738 0.148836
0.456565 0.833616 0.148989
0.459342 0.833478 0.149172
0.46302 0.83331 0.149416
0.467903 0.833066 0.149737
0.474342 0.832746 0.150164
0.48278 0.832334 0.150744
0.493721 0.831815 0.151537
0.50779 0.831159 0.15259
0.525795 0.830335 0.153994
0.548623 0.829313 0.155901
0.57705 0.828092 0.158465
0.611597 0.826688 0.161898
0.652277 0.825177 0.166522
0.698329 0.823697 0.172732
0.747768 0.822538 0.181064
0.798184 0.821973 0.192248
0.849958 0.822187 0.207172
0.900298 0.82359 0.226963
0.945327 0.826719 0.252934
0.983413 0.831983 0.286503
1 0.839673 0.329351
1 0.849897 0.382452
1 0.862516 0.443885
1 0.87715 0.510964
1 0.893706 0.578714
1 0.911589 0.645731
1 0.929686 0.709178
1 0.946914 0.764828
0.563256 0.879774 0.239811
0.564767 0.879698 0.239948
0.566278 0.879606 0.240101
0.567773 0.87953 0.240238
0.569268 0.879454 0.240391
0.570748 0.879393 0.240528
0.572519 0.879301 0.240696
0.574884 0.879179 0.240925
0.578027 0.879011 0.24123
0.582177 0.878813 0.241657
0.587686 0.878538 0.242206
0.594903 0.878172 0.242954
0.604318 0.877714 0.243961
0.616464 0.877134 0.245304
0.631937 0.876402 0.24712
0.651301 0.875502 0.249546
0.675013 0.874464 0.252811
0.703166 0.873304 0.257176
0.735317 0.872114 0.26305
0.771252 0.871 0.270893
0.811093 0.870024 0.281361
0.853315 0.869429 0.295293
0.895613 0.86949 0.313741
0.935286 0.870573 0.337987
0.971099 0.872969 0.368933
1 0.877043 0.406699
1 0.883131 0.451225
1 0.891386 0.501701
1 0.901656 0.556085
1 0.913756 0.612573
1 0.927245 0.670527
1 0.941283 0.725917
1 0.955062 0.776028
0.662287 0.915618 0.354086
0.663218 0.915572 0.354208
0.664118 0.915526 0.354345
0.665034 0.91548 0.354467
0.665934 0.915434 0.354589
0.666835 0.915389 0.354726
0.667918 0.915328 0.354879
0.669352 0.915267 0.355077
0.67126 0.91516 0.355352
0.673793 0.915038 0.355718
0.677134 0.91487 0.356222
0.681544 0.914641 0.356878
0.687312 0.914351 0.357763
0.694759 0.913985 0.358953
0.70428 0.913527 0.360555
0.716289 0.912963 0.362692
0.731411 0.912276 0.365545
0.750149 0.911437 0.369345
0.772824 0.910491 0.374411
0.799466 0.909468 0.381109
0.829664 0.908461 0.38996
0.862409 0.907607 0.401541
0.896086 0.907118 0.416571
0.929656 0.907179 0.435813
0.961776 0.908019 0.459953
0.990143 0.910002 0.489326
1 0.913451 0.523751
1 0.918502 0.56231
1 0.925216 0.604761
1 0.933516 0.651072
1 0.943084 0.699046
1 0.953353 0.745373
1 0.964019 0.789761
0.738247 0.944839 0.475578
0.738796 0.944808 0.47567
0.739345 0.944778 0.475761
0.739895 0.944747 0.475853
0.740444 0.944717 0.475929
0.740993 0.944686 0.47602
0.74165 0.944656 0.476127
0.742519 0.94461 0.47628
0.743679 0.944549 0.476478
0.745235 0.944472 0.476738
0.747311 0.944366 0.477073
0.750042 0.944228 0.477546
0.753658 0.944045 0.478172
0.758404 0.943801 0.479011
0.764599 0.943496 0.48014
0.772595 0.943099 0.481636
0.782773 0.942611 0.483635
0.795529 0.942 0.486305
0.811215 0.941299 0.48986
0.829953 0.94049 0.494545
0.851621 0.939651 0.500725
0.8757 0.938842 0.508812
0.901823 0.938155 0.519265
0.929198 0.937713 0.532586
0.95642 0.937728 0.549294
0.981704 0.938415 0.569696
1 0.940032 0.594385
1 0.942733 0.623484
1 0.946685 0.656535
1 0.951904 0.692607
1 0.958282 0.73019
1 0.96556 0.767895
1 0.973449 0.80618
0.801877 0.967529 0.58294
0.802213 0.967514 0.583001
0.802563 0.967498 0.583062
0.802899 0.967483 0.583108
0.803235 0.967468 0.583169
0.803571 0.967453 0.58323
0.803967 0.967422 0.583291
0.804517 0.967391 0.583383
0.805234 0.967361 0.583505
0.806195 0.967315 0.583673
0.807477 0.967239 0.583886
0.809186 0.967147 0.584176
0.811429 0.967041 0.584573
0.814404 0.966873 0.585092
0.818296 0.966674 0.585794
0.823331 0.966415 0.58674
0.829831 0.966094 0.588006
0.838041 0.965682 0.589685
0.848249 0.965194 0.591943
0.8607 0.964614 0.594919
0.875685 0.963958 0.598871
0.893172 0.963241 0.604089
0.912886 0.962539 0.61091
0.934157 0.961913 0.619745
0.955947 0.961532 0.631083
0.976974 0.961517 0.64538
0.996399 0.96202 0.662989
1 0.963241 0.683986
1 0.965362 0.708064
1 0.96849 0.734478
1 0.97258 0.762783
1 0.977417 0.793378
1 0.982834 0.825147
0.85333 0.984863 0.674418
0.853529 0.984848 0.674449
0.853727 0.984833 0.674479
0.853941 0.984833 0.67451
0.854139 0.984817 0.674556
0.854337 0.984802 0.674586
0.854582 0.984787 0.674632
0.854902 0.984771 0.674693
0.855329 0.984756 0.674769
0.855909 0.984726 0.674861
0.856672 0.98468 0.674998
0.85771 0.984619 0.675196
0.859068 0.984558 0.675441
0.860883 0.984451 0.675776
0.863264 0.984329 0.676219
0.866392 0.984161 0.676814
0.870466 0.983963 0.677607
0.875715 0.983688 0.678676
0.882399 0.983352 0.680095
0.890745 0.98294 0.681987
0.900984 0.982467 0.684489
0.913191 0.981918 0.6878
0.927275 0.981323 0.692149
0.942901 0.980758 0.697795
0.959381 0.980285 0.705058
0.976135 0.97998 0.71426
0.992523 0.97998 0.725689
1 0.980377 0.739498
1 0.981353 0.755947
1 0.983032 0.775219
1 0.985336 0.79704
1 0.988235 0.82092
1 0.991638 0.846143
0.895598 0.997986 0.748455
0.89572 0.997986 0.74847
0.895842 0.997971 0.748501
0.895964 0.997971 0.748516
0.896086 0.997971 0.748531
0.896208 0.997955 0.748562
0.896345 0.997955 0.748577
0.896544 0.99794 0.748623
0.896803 0.997925 0.748653
